;-- START GCODE --
;Sliced for Type A Machines Series 1
;Sliced at: Wed 27-05-2015 10:21:27
;Basic settings: Layer height: 0.2 Walls: 1.2 Fill: 0
;Print Speed: 100 Support: 0
;Retraction Speed: 40 Retraction Distance: 1.4
;Print time: #P_TIME#
;Filament used: #F_AMNT#m #F_WGHT#g
;Filament cost: #F_COST#
M106 S255	 ;start with the fan on
G21        ;metric values
G90        ;absolute positioning
M106 S255    ;start with the fan on
G28     ;move to endstops
G29		;allows for auto-levelling
G1 X150 Y5  Z15.0 F12000 ;center and move the platform down 15mm
M109 S200 ;Heat To temp
G92 E0                  ;zero the extruded length
G1 F200 E30              ;extrude 30mm of feed stock
G92 E0                  ;zero the extruded length again
G1 X175 Y25  Z0 F12000 ;remove bugger
G1 X220 F12000 ;remove bugger
G1 X150 Y150  Z15 F12000 ;recenter and begin
G1 F12000

;Layer count: 151
;LAYER:0
M106 S255
G0 F12000 X63.90 Y94.88 Z0.20
;TYPE:SKIRT
G1 F2700 X64.81 Y94.52 E0.03258
G1 X65.68 Y94.32 E0.06221
G1 X237.54 Y94.30 E5.77830
G1 X237.54 Y119.32 E6.61057
G1 X243.19 Y129.10 E6.98623
G1 X243.72 Y130.02 E7.02141
G1 X243.72 Y174.98 E8.51682
G1 X237.54 Y185.68 E8.92757
G1 X237.54 Y210.70 E9.75984
G1 X66.22 Y210.70 E15.45790
G1 X65.55 Y210.65 E15.48027
G1 X64.78 Y210.46 E15.50685
G1 X63.90 Y210.12 E15.53830
G1 X61.98 Y208.68 E15.61795
G1 X61.98 Y198.32 E15.96266
G1 X63.91 Y196.87 E16.04281
G1 X64.83 Y196.52 E16.07567
G1 X65.70 Y196.32 E16.10530
G1 X205.96 Y196.30 E20.77043
G1 X206.14 Y196.30 E20.77662
G1 X210.69 Y195.70 E20.92903
G1 X214.71 Y194.03 E21.07382
G1 X218.21 Y191.36 E21.22032
G1 X220.87 Y187.89 E21.36573
G1 X222.54 Y183.84 E21.51142
G1 X223.14 Y179.31 E21.66338
G1 X223.14 Y160.06 E22.30351
G1 X222.83 Y160.00 E22.31408
G1 X220.57 Y158.25 E22.40907
G1 X219.99 Y157.81 E22.43341
G1 X218.67 Y155.26 E22.52892
G1 X218.25 Y154.42 E22.56015
G1 X216.27 Y154.42 E22.62608
G1 X217.27 Y152.46 E22.69911
G1 X216.33 Y150.58 E22.76902
G1 X218.24 Y150.58 E22.83255
G1 X219.66 Y147.84 E22.93504
G1 X219.98 Y147.20 E22.95895
G1 X222.24 Y145.46 E23.05410
G1 X222.83 Y145.00 E23.07883
G1 X223.14 Y144.93 E23.08945
G1 X223.14 Y125.70 E23.72901
G1 X222.54 Y121.16 E23.88149
G1 X220.88 Y117.13 E24.02646
G1 X218.20 Y113.64 E24.17284
G1 X214.73 Y110.97 E24.31832
G1 X210.68 Y109.30 E24.46397
G1 X206.15 Y108.70 E24.61604
G1 X204.36 Y108.70 E24.67564
G1 X66.48 Y108.70 E29.26158
G1 X65.61 Y108.66 E29.29035
G1 X64.80 Y108.48 E29.31815
G1 X63.89 Y108.12 E29.35053
G1 X61.98 Y106.68 E29.43014
G1 X61.98 Y96.32 E29.77478
G1 X63.90 Y94.88 E29.85474
G1 F2400 E28.45474
G0 F12000 X66.18 Y98.52
;TYPE:WALL-INNER
G1 F2400 E29.85474
G1 F2700 X233.34 Y98.50 E35.41467
G1 X233.34 Y120.45 E36.14466
G1 X239.52 Y131.14 E36.55538
G1 X239.52 Y173.86 E37.97609
G1 X233.34 Y184.55 E38.38684
G1 X233.34 Y206.50 E39.11683
G1 X66.38 Y206.50 E44.67011
G1 X66.18 Y206.48 E44.67676
G1 X66.18 Y200.52 E44.87493
G1 X205.98 Y200.50 E49.52466
G1 X206.43 Y200.50 E49.53983
G1 X211.78 Y199.79 E49.71925
G1 X216.83 Y197.70 E49.90086
G1 X221.07 Y194.45 E50.07882
G1 X221.19 Y194.36 E50.08369
G1 X224.45 Y190.12 E50.26160
G1 X224.54 Y190.00 E50.26676
G1 X226.57 Y185.09 E50.44330
G1 X226.63 Y184.94 E50.44865
G1 X227.34 Y179.59 E50.62827
G1 X227.34 Y157.63 E51.35846
G1 X228.59 Y157.45 E51.40038
G1 X230.92 Y155.45 E51.50252
G1 X231.78 Y152.50 E51.60470
G1 X231.02 Y149.90 E51.69475
G1 X230.91 Y149.55 E51.70715
G1 X228.84 Y147.75 E51.79856
G1 X228.53 Y147.54 E51.81084
G1 X227.34 Y147.37 E51.85077
G1 X227.34 Y125.72 E52.57082
G1 X227.34 Y125.41 E52.58107
G1 X226.64 Y120.06 E52.76038
G1 X224.55 Y115.02 E52.94202
G1 X221.29 Y110.77 E53.12000
G1 X221.21 Y110.65 E53.12487
G1 X216.96 Y107.39 E53.30276
G1 X216.84 Y107.30 E53.30792
G1 X211.92 Y105.27 E53.48484
G1 X211.79 Y105.21 E53.48978
G1 X206.43 Y104.50 E53.66943
G1 X204.37 Y104.50 E53.73818
G1 X66.57 Y104.50 E58.32130
G1 X66.18 Y104.48 E58.33428
G1 X66.18 Y98.52 E58.53254
G0 F12000 X66.12 Y98.12
G1 F2700 X233.74 Y98.10 E64.10784
G1 X233.74 Y120.34 E64.84758
G1 X239.90 Y131.00 E65.25699
G1 X239.92 Y131.03 E65.25830
G1 X239.92 Y173.96 E66.68612
G1 X233.74 Y184.66 E67.09688
G1 X233.74 Y206.90 E67.83661
G1 X66.36 Y206.90 E73.40373
G1 X66.15 Y206.88 E73.41090
G1 X65.92 Y206.83 E73.41880
G1 X65.78 Y206.78 E73.42370
G1 X65.78 Y200.22 E73.64158
G1 X65.94 Y200.16 E73.64725
G1 X66.12 Y200.12 E73.65339
G1 X205.98 Y200.10 E78.30512
G1 X206.41 Y200.10 E78.31942
G1 X211.68 Y199.40 E78.49625
G1 X216.62 Y197.35 E78.67436
G1 X220.82 Y194.14 E78.85020
G1 X220.91 Y194.07 E78.85380
G1 X224.13 Y189.88 E79.02971
G1 X224.19 Y189.80 E79.03311
G1 X226.21 Y184.93 E79.20843
G1 X226.25 Y184.84 E79.21173
G1 X226.94 Y179.56 E79.38865
G1 X226.94 Y157.29 E80.12945
G1 X228.42 Y157.07 E80.17900
G1 X230.57 Y155.22 E80.27336
G1 X231.37 Y152.50 E80.36774
G1 X230.64 Y150.02 E80.45373
G1 X230.56 Y149.78 E80.46223
G1 X228.59 Y148.06 E80.54909
G1 X228.38 Y147.92 E80.55754
G1 X226.94 Y147.71 E80.60590
G1 X226.94 Y125.72 E81.33740
G1 X226.94 Y125.44 E81.34677
G1 X226.25 Y120.17 E81.52354
G1 X224.20 Y115.22 E81.70167
G1 X220.97 Y111.01 E81.87792
G1 X220.92 Y110.93 E81.88113
G1 X216.72 Y107.71 E82.05702
G1 X216.64 Y107.65 E82.06043
G1 X211.77 Y105.64 E82.23572
G1 X211.68 Y105.60 E82.23901
G1 X206.41 Y104.90 E82.41594
G1 X66.55 Y104.90 E87.06754
G1 X66.13 Y104.88 E87.08162
G1 X65.93 Y104.84 E87.08838
G1 X65.78 Y104.78 E87.09379
G1 X65.78 Y98.22 E87.31167
G1 X65.94 Y98.16 E87.31735
G1 X66.12 Y98.12 E87.32346
G0 F12000 X66.07 Y97.72
;TYPE:WALL-OUTER
G1 F2700 X234.14 Y97.70 E92.91352
G1 X234.14 Y120.23 E93.66300
G1 X240.32 Y130.93 E94.07373
G1 X240.32 Y174.07 E95.50870
G1 X234.14 Y184.77 E95.91942
G1 X234.14 Y207.30 E96.66891
G1 X66.35 Y207.30 E102.24986
G1 X66.09 Y207.28 E102.25853
G1 X65.80 Y207.21 E102.26848
G1 X65.57 Y207.12 E102.27664
G1 X65.38 Y206.98 E102.28443
G1 X65.38 Y200.02 E102.51599
G1 X65.57 Y199.88 E102.52390
G1 X65.82 Y199.78 E102.53288
G1 X66.07 Y199.72 E102.54154
G1 X206.38 Y199.70 E107.20807
G1 X211.57 Y199.01 E107.38232
G1 X216.42 Y197.00 E107.55695
G1 X220.59 Y193.82 E107.73130
G1 X220.63 Y193.79 E107.73301
G1 X223.81 Y189.64 E107.90691
G1 X223.84 Y189.60 E107.90855
G1 X225.84 Y184.78 E108.08219
G1 X225.86 Y184.73 E108.08388
G1 X226.54 Y179.54 E108.25809
G1 X226.54 Y157.34 E108.99633
G1 X224.31 Y156.84 E109.07224
G1 X222.67 Y155.58 E109.14143
G1 X221.84 Y153.98 E109.20111
G1 X222.03 Y153.98 E109.20740
G1 X223.31 Y155.96 E109.28577
G1 X225.53 Y156.97 E109.36677
G1 X225.62 Y157.04 E109.37078
G1 X225.79 Y157.05 E109.37628
G1 X228.24 Y156.69 E109.45891
G1 X230.22 Y155.00 E109.54546
G1 X230.95 Y152.50 E109.63200
G1 X230.26 Y150.13 E109.71398
G1 X230.22 Y150.00 E109.71861
G1 X228.35 Y148.38 E109.80092
G1 X228.23 Y148.30 E109.80549
G1 X225.79 Y147.95 E109.88764
G1 X225.65 Y147.95 E109.89220
G1 X223.40 Y148.97 E109.97441
G1 X223.29 Y149.06 E109.97897
G1 X222.03 Y151.02 E110.05642
G1 X221.84 Y151.02 E110.06257
G1 X222.67 Y149.42 E110.12218
G1 X224.31 Y148.16 E110.19134
G1 X226.54 Y147.66 E110.26728
G1 X226.54 Y125.72 E110.99704
G1 X226.54 Y125.46 E111.00552
G1 X225.86 Y120.27 E111.17970
G1 X223.85 Y115.42 E111.35436
G1 X220.66 Y111.25 E111.52886
G1 X220.63 Y111.22 E111.53045
G1 X216.48 Y108.03 E111.70432
G1 X216.44 Y108.00 E111.70596
G1 X211.62 Y106.01 E111.87964
G1 X211.57 Y105.99 E111.88127
G1 X206.38 Y105.30 E112.05551
G1 X66.56 Y105.30 E116.70601
G1 X66.07 Y105.28 E116.72222
G1 X65.81 Y105.22 E116.73106
G1 X65.57 Y105.12 E116.73971
G1 X65.38 Y104.98 E116.74762
G1 X65.38 Y98.02 E116.97914
G1 X65.57 Y97.88 E116.98708
G1 X65.81 Y97.78 E116.99582
G1 X66.07 Y97.72 E117.00463
G0 F12000 X66.70 Y98.66
;TYPE:FILL
G1 F2700 X72.40 Y104.36 E117.27265
G0 F12000 X71.83 Y104.36
G1 F2700 X66.32 Y98.84 E117.53201
G0 F12000 X66.32 Y99.41
G1 F2700 X71.27 Y104.36 E117.76477
G0 F12000 X70.70 Y104.36
G1 F2700 X66.32 Y99.98 E117.97091
G0 F12000 X66.32 Y100.54
G1 F2700 X70.14 Y104.36 E118.15045
G0 F12000 X69.57 Y104.36
G1 F2700 X66.32 Y101.11 E118.30339
G0 F12000 X66.32 Y101.67
G1 F2700 X69.00 Y104.36 E118.42971
G0 F12000 X68.44 Y104.36
G1 F2700 X66.32 Y102.24 E118.52943
G0 F12000 X66.32 Y102.80
G1 F2700 X67.87 Y104.36 E118.60255
G0 F12000 X67.31 Y104.36
G1 F2700 X66.32 Y103.37 E118.64904
G0 F12000 X66.32 Y103.94
G1 F2700 X66.74 Y104.36 E118.66891
G0 F12000 X67.27 Y98.66
G1 F2700 X72.96 Y104.36 E118.93693
G0 F12000 X73.53 Y104.36
G1 F2700 X67.83 Y98.66 E119.20495
G0 F12000 X68.40 Y98.66
G1 F2700 X74.09 Y104.36 E119.47294
G0 F12000 X74.66 Y104.36
G1 F2700 X68.96 Y98.66 E119.74096
G0 F12000 X69.53 Y98.66
G1 F2700 X75.23 Y104.36 E120.00897
G0 F12000 X75.79 Y104.36
G1 F2700 X70.09 Y98.66 E120.27697
G0 F12000 X70.66 Y98.66
G1 F2700 X76.36 Y104.36 E120.54498
G0 F12000 X76.92 Y104.36
G1 F2700 X71.22 Y98.66 E120.81300
G0 F12000 X71.79 Y98.66
G1 F2700 X77.49 Y104.36 E121.08102
G0 F12000 X78.05 Y104.36
G1 F2700 X72.36 Y98.66 E121.34906
G0 F12000 X72.92 Y98.66
G1 F2700 X78.62 Y104.36 E121.61712
G0 F12000 X79.19 Y104.36
G1 F2700 X73.49 Y98.66 E121.88518
G0 F12000 X74.05 Y98.66
G1 F2700 X79.75 Y104.36 E122.15322
G0 F12000 X80.32 Y104.36
G1 F2700 X74.62 Y98.66 E122.42129
G0 F12000 X75.18 Y98.66
G1 F2700 X80.88 Y104.36 E122.68935
G0 F12000 X81.45 Y104.36
G1 F2700 X75.75 Y98.66 E122.95739
G0 F12000 X76.31 Y98.66
G1 F2700 X82.01 Y104.36 E123.22545
G0 F12000 X82.58 Y104.36
G1 F2700 X76.88 Y98.66 E123.49352
G0 F12000 X77.45 Y98.66
G1 F2700 X83.14 Y104.36 E123.76160
G0 F12000 X83.71 Y104.36
G1 F2700 X78.01 Y98.66 E124.02969
G0 F12000 X78.58 Y98.66
G1 F2700 X84.28 Y104.36 E124.29780
G0 F12000 X84.84 Y104.36
G1 F2700 X79.14 Y98.66 E124.56589
G0 F12000 X79.71 Y98.66
G1 F2700 X85.41 Y104.36 E124.83398
G0 F12000 X85.97 Y104.36
G1 F2700 X80.28 Y98.66 E125.10206
G0 F12000 X80.84 Y98.66
G1 F2700 X86.54 Y104.36 E125.37015
G0 F12000 X87.11 Y104.36
G1 F2700 X81.41 Y98.66 E125.63824
G0 F12000 X81.97 Y98.66
G1 F2700 X87.67 Y104.36 E125.90632
G0 F12000 X88.24 Y104.36
G1 F2700 X82.54 Y98.66 E126.17443
G0 F12000 X83.10 Y98.66
G1 F2700 X88.80 Y104.36 E126.44254
G0 F12000 X89.37 Y104.36
G1 F2700 X83.67 Y98.66 E126.71065
G0 F12000 X84.23 Y98.66
G1 F2700 X89.93 Y104.36 E126.97877
G0 F12000 X90.50 Y104.36
G1 F2700 X84.80 Y98.66 E127.24690
G0 F12000 X85.36 Y98.66
G1 F2700 X91.07 Y104.36 E127.51503
G0 F12000 X91.63 Y104.36
G1 F2700 X85.93 Y98.66 E127.78314
G0 F12000 X86.50 Y98.66
G1 F2700 X92.20 Y104.36 E128.05128
G0 F12000 X92.76 Y104.36
G1 F2700 X87.06 Y98.66 E128.31941
G0 F12000 X87.63 Y98.66
G1 F2700 X93.33 Y104.36 E128.58752
G0 F12000 X93.89 Y104.36
G1 F2700 X88.19 Y98.66 E128.85566
G0 F12000 X88.76 Y98.66
G1 F2700 X94.46 Y104.36 E129.12384
G0 F12000 X95.03 Y104.36
G1 F2700 X89.32 Y98.66 E129.39200
G0 F12000 X89.89 Y98.66
G1 F2700 X95.59 Y104.36 E129.66015
G0 F12000 X96.16 Y104.36
G1 F2700 X90.45 Y98.66 E129.92833
G0 F12000 X91.02 Y98.66
G1 F2700 X96.72 Y104.36 E130.19652
G0 F12000 X97.29 Y104.36
G1 F2700 X91.59 Y98.66 E130.46467
G0 F12000 X92.15 Y98.66
G1 F2700 X97.85 Y104.36 E130.73285
G0 F12000 X98.42 Y104.36
G1 F2700 X92.72 Y98.66 E131.00103
G0 F12000 X93.28 Y98.66
G1 F2700 X98.98 Y104.36 E131.26919
G0 F12000 X99.55 Y104.36
G1 F2700 X93.85 Y98.66 E131.53735
G0 F12000 X94.42 Y98.66
G1 F2700 X100.12 Y104.36 E131.80555
G0 F12000 X100.68 Y104.36
G1 F2700 X94.98 Y98.66 E132.07376
G0 F12000 X95.55 Y98.66
G1 F2700 X101.25 Y104.36 E132.34196
G0 F12000 X101.81 Y104.36
G1 F2700 X96.11 Y98.66 E132.61017
G0 F12000 X96.68 Y98.66
G1 F2700 X102.38 Y104.36 E132.87837
G0 F12000 X102.94 Y104.36
G1 F2700 X97.24 Y98.66 E133.14658
G0 F12000 X97.81 Y98.66
G1 F2700 X103.51 Y104.36 E133.41478
G0 F12000 X104.08 Y104.36
G1 F2700 X98.37 Y98.66 E133.68299
G0 F12000 X98.94 Y98.66
G1 F2700 X104.64 Y104.36 E133.95119
G0 F12000 X105.21 Y104.36
G1 F2700 X99.51 Y98.66 E134.21940
G0 F12000 X100.07 Y98.66
G1 F2700 X105.77 Y104.36 E134.48762
G0 F12000 X106.34 Y104.36
G1 F2700 X100.64 Y98.66 E134.75588
G0 F12000 X101.20 Y98.66
G1 F2700 X106.91 Y104.36 E135.02413
G0 F12000 X107.47 Y104.36
G1 F2700 X101.77 Y98.66 E135.29238
G0 F12000 X102.33 Y98.66
G1 F2700 X108.04 Y104.36 E135.56063
G0 F12000 X108.60 Y104.36
G1 F2700 X102.90 Y98.66 E135.82888
G0 F12000 X103.47 Y98.66
G1 F2700 X109.17 Y104.36 E136.09713
G0 F12000 X109.73 Y104.36
G1 F2700 X104.03 Y98.66 E136.36539
G0 F12000 X104.60 Y98.66
G1 F2700 X110.30 Y104.36 E136.63364
G0 F12000 X110.86 Y104.36
G1 F2700 X105.16 Y98.66 E136.90189
G0 F12000 X105.73 Y98.66
G1 F2700 X111.43 Y104.36 E137.17014
G0 F12000 X112.00 Y104.36
G1 F2700 X106.29 Y98.66 E137.43842
G0 F12000 X106.86 Y98.66
G1 F2700 X112.56 Y104.36 E137.70669
G0 F12000 X113.13 Y104.36
G1 F2700 X107.42 Y98.66 E137.97494
G0 F12000 X107.99 Y98.66
G1 F2700 X113.69 Y104.36 E138.24324
G0 F12000 X114.26 Y104.36
G1 F2700 X108.56 Y98.66 E138.51154
G0 F12000 X109.12 Y98.66
G1 F2700 X114.83 Y104.36 E138.77984
G0 F12000 X115.39 Y104.36
G1 F2700 X109.69 Y98.66 E139.04814
G0 F12000 X110.25 Y98.66
G1 F2700 X115.96 Y104.36 E139.31646
G0 F12000 X116.52 Y104.36
G1 F2700 X110.82 Y98.66 E139.58476
G0 F12000 X111.38 Y98.66
G1 F2700 X117.09 Y104.36 E139.85310
G0 F12000 X117.65 Y104.36
G1 F2700 X111.95 Y98.66 E140.12145
G0 F12000 X112.51 Y98.66
G1 F2700 X118.22 Y104.36 E140.38979
G0 F12000 X118.78 Y104.36
G1 F2700 X113.08 Y98.66 E140.65814
G0 F12000 X113.65 Y98.66
G1 F2700 X119.35 Y104.36 E140.92649
G0 F12000 X119.92 Y104.36
G1 F2700 X114.21 Y98.66 E141.19483
G0 F12000 X114.78 Y98.66
G1 F2700 X120.48 Y104.36 E141.46318
G0 F12000 X121.05 Y104.36
G1 F2700 X115.34 Y98.66 E141.73152
G0 F12000 X115.91 Y98.66
G1 F2700 X121.61 Y104.36 E141.99987
G0 F12000 X122.18 Y104.36
G1 F2700 X116.47 Y98.65 E142.26826
G0 F12000 X117.04 Y98.65
G1 F2700 X122.75 Y104.36 E142.53665
G0 F12000 X123.31 Y104.36
G1 F2700 X117.61 Y98.65 E142.80502
G0 F12000 X118.17 Y98.65
G1 F2700 X123.88 Y104.36 E143.07342
G0 F12000 X124.44 Y104.36
G1 F2700 X118.74 Y98.65 E143.34181
G0 F12000 X119.30 Y98.65
G1 F2700 X125.01 Y104.36 E143.61018
G0 F12000 X125.57 Y104.36
G1 F2700 X119.87 Y98.65 E143.87855
G0 F12000 X120.43 Y98.65
G1 F2700 X126.14 Y104.36 E144.14694
G0 F12000 X126.70 Y104.36
G1 F2700 X121.00 Y98.65 E144.41533
G0 F12000 X121.56 Y98.65
G1 F2700 X127.27 Y104.36 E144.68370
G0 F12000 X127.84 Y104.36
G1 F2700 X122.13 Y98.65 E144.95210
G0 F12000 X122.69 Y98.65
G1 F2700 X128.40 Y104.36 E145.22051
G0 F12000 X128.97 Y104.36
G1 F2700 X123.26 Y98.65 E145.48890
G0 F12000 X123.83 Y98.65
G1 F2700 X129.53 Y104.36 E145.75730
G0 F12000 X130.10 Y104.36
G1 F2700 X124.39 Y98.65 E146.02571
G0 F12000 X124.96 Y98.65
G1 F2700 X130.66 Y104.36 E146.29411
G0 F12000 X131.23 Y104.36
G1 F2700 X125.52 Y98.65 E146.56250
G0 F12000 X126.09 Y98.65
G1 F2700 X131.80 Y104.36 E146.83092
G0 F12000 X132.36 Y104.36
G1 F2700 X126.66 Y98.65 E147.09931
G0 F12000 X127.22 Y98.65
G1 F2700 X132.93 Y104.36 E147.36770
G0 F12000 X133.49 Y104.36
G1 F2700 X127.79 Y98.65 E147.63614
G0 F12000 X128.35 Y98.65
G1 F2700 X134.06 Y104.36 E147.90458
G0 F12000 X134.62 Y104.36
G1 F2700 X128.92 Y98.65 E148.17302
G0 F12000 X129.48 Y98.65
G1 F2700 X135.19 Y104.36 E148.44146
G0 F12000 X135.76 Y104.36
G1 F2700 X130.05 Y98.65 E148.70992
G0 F12000 X130.61 Y98.65
G1 F2700 X136.32 Y104.36 E148.97836
G0 F12000 X136.89 Y104.36
G1 F2700 X131.18 Y98.65 E149.24685
G0 F12000 X131.75 Y98.65
G1 F2700 X137.45 Y104.36 E149.51531
G0 F12000 X138.02 Y104.36
G1 F2700 X132.31 Y98.65 E149.78380
G0 F12000 X132.88 Y98.65
G1 F2700 X138.59 Y104.36 E150.05229
G0 F12000 X139.15 Y104.36
G1 F2700 X133.44 Y98.65 E150.32080
G0 F12000 X134.01 Y98.65
G1 F2700 X139.72 Y104.36 E150.58931
G0 F12000 X140.28 Y104.36
G1 F2700 X134.57 Y98.65 E150.85784
G0 F12000 X135.14 Y98.65
G1 F2700 X140.85 Y104.36 E151.12635
G0 F12000 X141.41 Y104.36
G1 F2700 X135.71 Y98.65 E151.39486
G0 F12000 X136.27 Y98.65
G1 F2700 X141.98 Y104.36 E151.66340
G0 F12000 X142.54 Y104.36
G1 F2700 X136.84 Y98.65 E151.93191
G0 F12000 X137.40 Y98.65
G1 F2700 X143.11 Y104.36 E152.20042
G0 F12000 X143.68 Y104.36
G1 F2700 X137.97 Y98.65 E152.46895
G0 F12000 X138.53 Y98.65
G1 F2700 X144.24 Y104.36 E152.73748
G0 F12000 X144.81 Y104.36
G1 F2700 X139.10 Y98.65 E153.00602
G0 F12000 X139.66 Y98.65
G1 F2700 X145.37 Y104.36 E153.27455
G0 F12000 X145.94 Y104.36
G1 F2700 X140.23 Y98.65 E153.54311
G0 F12000 X140.79 Y98.65
G1 F2700 X146.50 Y104.36 E153.81164
G0 F12000 X147.07 Y104.36
G1 F2700 X141.36 Y98.65 E154.08018
G0 F12000 X141.93 Y98.65
G1 F2700 X147.64 Y104.36 E154.34873
G0 F12000 X148.20 Y104.36
G1 F2700 X142.49 Y98.65 E154.61727
G0 F12000 X143.06 Y98.65
G1 F2700 X148.77 Y104.36 E154.88580
G0 F12000 X149.33 Y104.36
G1 F2700 X143.62 Y98.65 E155.15436
G0 F12000 X144.19 Y98.65
G1 F2700 X149.90 Y104.36 E155.42289
G0 F12000 X150.46 Y104.36
G1 F2700 X144.75 Y98.65 E155.69147
G0 F12000 X145.32 Y98.65
G1 F2700 X151.03 Y104.36 E155.96005
G0 F12000 X151.59 Y104.36
G1 F2700 X145.89 Y98.65 E156.22861
G0 F12000 X146.45 Y98.65
G1 F2700 X152.16 Y104.36 E156.49719
G0 F12000 X152.73 Y104.36
G1 F2700 X147.02 Y98.65 E156.76577
G0 F12000 X147.58 Y98.65
G1 F2700 X153.29 Y104.36 E157.03433
G0 F12000 X153.86 Y104.36
G1 F2700 X148.15 Y98.65 E157.30291
G0 F12000 X148.71 Y98.65
G1 F2700 X154.42 Y104.36 E157.57149
G0 F12000 X154.99 Y104.36
G1 F2700 X149.28 Y98.65 E157.84007
G0 F12000 X149.84 Y98.65
G1 F2700 X155.56 Y104.36 E158.10868
G0 F12000 X156.12 Y104.36
G1 F2700 X150.41 Y98.65 E158.37731
G0 F12000 X150.98 Y98.65
G1 F2700 X156.69 Y104.36 E158.64593
G0 F12000 X157.25 Y104.36
G1 F2700 X151.54 Y98.65 E158.91454
G0 F12000 X152.11 Y98.65
G1 F2700 X157.82 Y104.36 E159.18317
G0 F12000 X158.38 Y104.36
G1 F2700 X152.67 Y98.65 E159.45179
G0 F12000 X153.24 Y98.65
G1 F2700 X158.95 Y104.36 E159.72040
G0 F12000 X159.51 Y104.36
G1 F2700 X153.80 Y98.65 E159.98903
G0 F12000 X154.37 Y98.65
G1 F2700 X160.08 Y104.36 E160.25766
G0 F12000 X160.65 Y104.36
G1 F2700 X154.94 Y98.65 E160.52628
G0 F12000 X155.50 Y98.65
G1 F2700 X161.21 Y104.36 E160.79496
G0 F12000 X161.78 Y104.36
G1 F2700 X156.07 Y98.65 E161.06363
G0 F12000 X156.63 Y98.65
G1 F2700 X162.34 Y104.36 E161.33231
G0 F12000 X162.91 Y104.36
G1 F2700 X157.20 Y98.65 E161.60098
G0 F12000 X157.76 Y98.65
G1 F2700 X163.48 Y104.36 E161.86966
G0 F12000 X164.04 Y104.36
G1 F2700 X158.33 Y98.65 E162.13833
G0 F12000 X158.90 Y98.65
G1 F2700 X164.61 Y104.36 E162.40701
G0 F12000 X165.17 Y104.36
G1 F2700 X159.46 Y98.65 E162.67568
G0 F12000 X160.03 Y98.65
G1 F2700 X165.74 Y104.36 E162.94436
G0 F12000 X166.30 Y104.36
G1 F2700 X160.59 Y98.65 E163.21303
G0 F12000 X161.16 Y98.65
G1 F2700 X166.87 Y104.36 E163.48173
G0 F12000 X167.44 Y104.36
G1 F2700 X161.72 Y98.65 E163.75041
G0 F12000 X162.29 Y98.65
G1 F2700 X168.00 Y104.36 E164.01910
G0 F12000 X168.57 Y104.36
G1 F2700 X162.85 Y98.65 E164.28780
G0 F12000 X163.42 Y98.65
G1 F2700 X169.13 Y104.36 E164.55648
G0 F12000 X169.70 Y104.36
G1 F2700 X163.99 Y98.65 E164.82518
G0 F12000 X164.55 Y98.65
G1 F2700 X170.26 Y104.36 E165.09388
G0 F12000 X170.83 Y104.36
G1 F2700 X165.12 Y98.65 E165.36255
G0 F12000 X165.68 Y98.65
G1 F2700 X171.40 Y104.36 E165.63125
G0 F12000 X171.96 Y104.36
G1 F2700 X166.25 Y98.65 E165.89995
G0 F12000 X166.81 Y98.65
G1 F2700 X172.53 Y104.36 E166.16867
G0 F12000 X173.09 Y104.36
G1 F2700 X167.38 Y98.65 E166.43739
G0 F12000 X167.94 Y98.65
G1 F2700 X173.66 Y104.36 E166.70614
G0 F12000 X174.22 Y104.36
G1 F2700 X168.51 Y98.65 E166.97488
G0 F12000 X169.08 Y98.65
G1 F2700 X174.79 Y104.36 E167.24360
G0 F12000 X175.35 Y104.36
G1 F2700 X169.64 Y98.65 E167.51235
G0 F12000 X170.21 Y98.65
G1 F2700 X175.92 Y104.36 E167.78110
G0 F12000 X176.49 Y104.36
G1 F2700 X170.77 Y98.65 E168.04982
G0 F12000 X171.34 Y98.65
G1 F2700 X177.05 Y104.36 E168.31854
G0 F12000 X177.62 Y104.36
G1 F2700 X171.90 Y98.65 E168.58728
G0 F12000 X172.47 Y98.65
G1 F2700 X178.18 Y104.36 E168.85605
G0 F12000 X178.75 Y104.36
G1 F2700 X173.03 Y98.65 E169.12482
G0 F12000 X173.60 Y98.65
G1 F2700 X179.31 Y104.36 E169.39359
G0 F12000 X179.88 Y104.36
G1 F2700 X174.17 Y98.65 E169.66236
G0 F12000 X174.73 Y98.65
G1 F2700 X180.45 Y104.36 E169.93113
G0 F12000 X181.01 Y104.36
G1 F2700 X175.30 Y98.65 E170.19990
G0 F12000 X175.86 Y98.65
G1 F2700 X181.58 Y104.36 E170.46867
G0 F12000 X182.14 Y104.36
G1 F2700 X176.43 Y98.65 E170.73744
G0 F12000 X177.00 Y98.65
G1 F2700 X182.71 Y104.36 E171.00621
G0 F12000 X183.28 Y104.36
G1 F2700 X177.56 Y98.65 E171.27502
G0 F12000 X178.12 Y98.65
G1 F2700 X183.84 Y104.36 E171.54386
G0 F12000 X184.41 Y104.36
G1 F2700 X178.69 Y98.65 E171.81270
G0 F12000 X179.26 Y98.65
G1 F2700 X184.97 Y104.36 E172.08152
G0 F12000 X185.54 Y104.36
G1 F2700 X179.82 Y98.65 E172.35036
G0 F12000 X180.39 Y98.65
G1 F2700 X186.10 Y104.36 E172.61920
G0 F12000 X186.67 Y104.36
G1 F2700 X180.95 Y98.65 E172.88801
G0 F12000 X181.52 Y98.65
G1 F2700 X187.24 Y104.36 E173.15685
G0 F12000 X187.80 Y104.36
G1 F2700 X182.09 Y98.65 E173.42569
G0 F12000 X182.65 Y98.65
G1 F2700 X188.37 Y104.36 E173.69451
G0 F12000 X188.93 Y104.36
G1 F2700 X183.22 Y98.65 E173.96337
G0 F12000 X183.78 Y98.65
G1 F2700 X189.50 Y104.36 E174.23223
G0 F12000 X190.06 Y104.36
G1 F2700 X184.35 Y98.65 E174.50110
G0 F12000 X184.91 Y98.65
G1 F2700 X190.63 Y104.36 E174.76996
G0 F12000 X191.19 Y104.36
G1 F2700 X185.48 Y98.65 E175.03882
G0 F12000 X186.04 Y98.65
G1 F2700 X191.76 Y104.36 E175.30769
G0 F12000 X192.33 Y104.36
G1 F2700 X186.61 Y98.65 E175.57655
G0 F12000 X187.18 Y98.65
G1 F2700 X192.89 Y104.36 E175.84541
G0 F12000 X193.46 Y104.36
G1 F2700 X187.74 Y98.65 E176.11430
G0 F12000 X188.31 Y98.65
G1 F2700 X194.02 Y104.36 E176.38316
G0 F12000 X194.59 Y104.36
G1 F2700 X188.87 Y98.64 E176.65207
G0 F12000 X189.44 Y98.64
G1 F2700 X195.16 Y104.36 E176.92098
G0 F12000 X195.72 Y104.36
G1 F2700 X190.00 Y98.64 E177.18989
G0 F12000 X190.57 Y98.64
G1 F2700 X196.29 Y104.36 E177.45880
G0 F12000 X196.85 Y104.36
G1 F2700 X191.13 Y98.64 E177.72771
G0 F12000 X191.70 Y98.64
G1 F2700 X197.42 Y104.36 E177.99662
G0 F12000 X197.98 Y104.36
G1 F2700 X192.27 Y98.64 E178.26553
G0 F12000 X192.83 Y98.64
G1 F2700 X198.55 Y104.36 E178.53444
G0 F12000 X199.11 Y104.36
G1 F2700 X193.40 Y98.64 E178.80335
G0 F12000 X193.96 Y98.64
G1 F2700 X199.68 Y104.36 E179.07226
G0 F12000 X200.25 Y104.36
G1 F2700 X194.53 Y98.64 E179.34122
G0 F12000 X195.09 Y98.64
G1 F2700 X200.81 Y104.36 E179.61015
G0 F12000 X201.38 Y104.36
G1 F2700 X195.66 Y98.64 E179.87911
G0 F12000 X196.22 Y98.64
G1 F2700 X201.94 Y104.36 E180.14807
G0 F12000 X202.51 Y104.36
G1 F2700 X196.79 Y98.64 E180.41703
G0 F12000 X197.36 Y98.64
G1 F2700 X203.07 Y104.36 E180.68596
G0 F12000 X203.64 Y104.36
G1 F2700 X197.92 Y98.64 E180.95492
G0 F12000 X198.49 Y98.64
G1 F2700 X204.21 Y104.36 E181.22387
G0 F12000 X204.77 Y104.36
G1 F2700 X199.05 Y98.64 E181.49281
G0 F12000 X199.62 Y98.64
G1 F2700 X205.34 Y104.36 E181.76177
G0 F12000 X205.90 Y104.36
G1 F2700 X200.18 Y98.64 E182.03075
G0 F12000 X200.75 Y98.64
G1 F2700 X206.47 Y104.37 E182.29991
G0 F12000 X207.12 Y104.45
G1 F2700 X201.32 Y98.64 E182.57311
G0 F12000 X201.88 Y98.64
G1 F2700 X207.78 Y104.54 E182.85036
G0 F12000 X208.43 Y104.62
G1 F2700 X202.45 Y98.64 E183.13165
G0 F12000 X203.01 Y98.64
G1 F2700 X209.08 Y104.71 E183.41692
G0 F12000 X209.73 Y104.80
G1 F2700 X203.58 Y98.64 E183.70630
G0 F12000 X204.14 Y98.64
G1 F2700 X210.38 Y104.88 E183.99967
G0 F12000 X211.03 Y104.97
G1 F2700 X204.71 Y98.64 E184.29708
G0 F12000 X205.28 Y98.64
G1 F2700 X211.69 Y105.05 E184.59856
G0 F12000 X212.58 Y105.39
G1 F2700 X205.84 Y98.64 E184.91578
G0 F12000 X206.41 Y98.64
G1 F2700 X213.55 Y105.79 E185.25186
G0 F12000 X214.52 Y106.19
G1 F2700 X206.97 Y98.64 E185.60680
G0 F12000 X207.54 Y98.64
G1 F2700 X215.49 Y106.59 E185.98063
G0 F12000 X216.45 Y106.99
G1 F2700 X208.10 Y98.64 E186.37334
G0 F12000 X208.67 Y98.64
G1 F2700 X218.18 Y108.15 E186.82056
G0 F12000 X220.61 Y110.02
G1 F2700 X209.24 Y98.64 E187.35577
G0 F12000 X209.80 Y98.64
G1 F2700 X235.33 Y124.17 E188.55672
G0 F12000 X234.56 Y122.84
G1 F2700 X210.37 Y98.64 E189.69469
G0 F12000 X210.93 Y98.64
G1 F2700 X233.78 Y121.50 E190.76964
G0 F12000 X233.20 Y120.35
G1 F2700 X211.50 Y98.64 E191.79060
G0 F12000 X212.06 Y98.64
G1 F2700 X233.20 Y119.78 E192.78496
G0 F12000 X233.20 Y119.22
G1 F2700 X212.63 Y98.64 E193.75270
G0 F12000 X213.19 Y98.64
G1 F2700 X233.20 Y118.65 E194.69384
G0 F12000 X233.20 Y118.08
G1 F2700 X213.76 Y98.64 E195.60838
G0 F12000 X214.32 Y98.64
G1 F2700 X233.20 Y117.52 E196.49630
G0 F12000 X233.20 Y116.95
G1 F2700 X214.89 Y98.64 E197.35761
G0 F12000 X215.46 Y98.64
G1 F2700 X233.20 Y116.39 E198.19233
G0 F12000 X233.20 Y115.82
G1 F2700 X216.02 Y98.64 E199.00043
G0 F12000 X216.59 Y98.64
G1 F2700 X233.20 Y115.26 E199.78192
G0 F12000 X233.20 Y114.69
G1 F2700 X217.15 Y98.64 E200.53682
G0 F12000 X217.72 Y98.64
G1 F2700 X233.20 Y114.12 E201.26511
G0 F12000 X233.20 Y113.56
G1 F2700 X218.28 Y98.64 E201.96679
G0 F12000 X218.85 Y98.64
G1 F2700 X233.20 Y112.99 E202.64186
G0 F12000 X233.20 Y112.43
G1 F2700 X219.41 Y98.64 E203.29033
G0 F12000 X219.98 Y98.64
G1 F2700 X233.20 Y111.86 E203.91219
G0 F12000 X233.20 Y111.30
G1 F2700 X220.55 Y98.64 E204.50744
G0 F12000 X221.11 Y98.64
G1 F2700 X233.20 Y110.73 E205.07609
G0 F12000 X233.20 Y110.17
G1 F2700 X221.68 Y98.64 E205.61812
G0 F12000 X222.24 Y98.64
G1 F2700 X233.20 Y109.60 E206.13360
G0 F12000 X233.20 Y109.03
G1 F2700 X222.81 Y98.64 E206.62245
G0 F12000 X223.38 Y98.64
G1 F2700 X233.20 Y108.47 E207.08469
G0 F12000 X233.20 Y107.90
G1 F2700 X223.94 Y98.64 E207.52034
G0 F12000 X224.51 Y98.64
G1 F2700 X233.20 Y107.34 E207.92938
G0 F12000 X233.20 Y106.77
G1 F2700 X225.07 Y98.64 E208.31179
G0 F12000 X225.64 Y98.64
G1 F2700 X233.20 Y106.21 E208.66762
G0 F12000 X233.20 Y105.64
G1 F2700 X226.20 Y98.64 E208.99683
G0 F12000 X226.77 Y98.64
G1 F2700 X233.20 Y105.07 E209.29942
G0 F12000 X233.20 Y104.51
G1 F2700 X227.33 Y98.64 E209.57541
G0 F12000 X227.90 Y98.64
G1 F2700 X233.20 Y103.94 E209.82485
G0 F12000 X233.20 Y103.38
G1 F2700 X228.47 Y98.64 E210.04766
G0 F12000 X229.03 Y98.64
G1 F2700 X233.20 Y102.81 E210.24385
G0 F12000 X233.20 Y102.25
G1 F2700 X229.60 Y98.64 E210.41347
G0 F12000 X230.16 Y98.64
G1 F2700 X233.20 Y101.68 E210.55646
G0 F12000 X233.20 Y101.11
G1 F2700 X230.73 Y98.64 E210.67283
G0 F12000 X231.29 Y98.64
G1 F2700 X233.20 Y100.55 E210.76262
G0 F12000 X233.20 Y99.98
G1 F2700 X231.86 Y98.64 E210.82579
G0 F12000 X232.43 Y98.64
G1 F2700 X233.20 Y99.42 E210.86234
G0 F12000 X233.20 Y98.85
G1 F2700 X232.99 Y98.64 E210.87231
G0 F12000 X221.83 Y111.24
G1 F2700 X236.11 Y125.51 E211.54365
G0 F12000 X236.88 Y126.85
G1 F2700 X223.68 Y113.65 E212.16468
G0 F12000 X224.85 Y115.39
G1 F2700 X237.65 Y128.19 E212.76670
G0 F12000 X238.43 Y129.53
G1 F2700 X225.25 Y116.36 E213.38634
G0 F12000 X225.65 Y117.32
G1 F2700 X239.20 Y130.87 E214.02360
G0 F12000 X239.38 Y131.61
G1 F2700 X226.05 Y118.29 E214.65037
G0 F12000 X226.45 Y119.25
G1 F2700 X239.38 Y132.18 E215.25837
G0 F12000 X239.38 Y132.75
G1 F2700 X226.79 Y120.16 E215.85049
G0 F12000 X226.87 Y120.81
G1 F2700 X239.38 Y133.31 E216.43859
G0 F12000 X239.38 Y133.88
G1 F2700 X226.96 Y121.46 E217.02265
G0 F12000 X227.05 Y122.11
G1 F2700 X239.38 Y134.44 E217.60266
G0 F12000 X239.38 Y135.01
G1 F2700 X227.13 Y122.76 E218.17868
G0 F12000 X227.22 Y123.41
G1 F2700 X239.38 Y135.57 E218.75062
G0 F12000 X239.38 Y136.14
G1 F2700 X227.30 Y124.07 E219.31852
G0 F12000 X227.39 Y124.72
G1 F2700 X239.38 Y136.71 E219.88238
G0 F12000 X239.38 Y137.27
G1 F2700 X227.47 Y125.37 E220.44221
G0 F12000 X227.48 Y125.94
G1 F2700 X239.38 Y137.84 E221.00188
G0 F12000 X239.38 Y138.40
G1 F2700 X227.48 Y126.50 E221.56153
G0 F12000 X227.48 Y127.07
G1 F2700 X239.38 Y138.97 E222.12120
G0 F12000 X239.38 Y139.53
G1 F2700 X227.48 Y127.64 E222.68086
G0 F12000 X227.48 Y128.20
G1 F2700 X239.38 Y140.10 E223.24051
G0 F12000 X239.38 Y140.66
G1 F2700 X227.48 Y128.77 E223.80018
G0 F12000 X227.48 Y129.33
G1 F2700 X239.38 Y141.23 E224.35985
G0 F12000 X239.38 Y141.80
G1 F2700 X227.48 Y129.90 E224.91947
G0 F12000 X227.48 Y130.46
G1 F2700 X239.38 Y142.36 E225.47911
G0 F12000 X239.38 Y142.93
G1 F2700 X227.48 Y131.03 E226.03876
G0 F12000 X227.48 Y131.60
G1 F2700 X239.38 Y143.49 E226.59838
G0 F12000 X239.38 Y144.06
G1 F2700 X227.48 Y132.16 E227.15803
G0 F12000 X227.48 Y132.73
G1 F2700 X239.38 Y144.62 E227.71767
G0 F12000 X239.38 Y145.19
G1 F2700 X227.48 Y133.29 E228.27730
G0 F12000 X227.48 Y133.86
G1 F2700 X239.38 Y145.76 E228.83694
G0 F12000 X239.38 Y146.32
G1 F2700 X227.48 Y134.43 E229.39654
G0 F12000 X227.48 Y134.99
G1 F2700 X239.38 Y146.89 E229.95614
G0 F12000 X239.38 Y147.45
G1 F2700 X227.48 Y135.56 E230.51574
G0 F12000 X227.48 Y136.12
G1 F2700 X239.38 Y148.02 E231.07533
G0 F12000 X239.38 Y148.59
G1 F2700 X227.48 Y136.69 E231.63496
G0 F12000 X227.48 Y137.25
G1 F2700 X239.38 Y149.15 E232.19455
G0 F12000 X239.38 Y149.72
G1 F2700 X227.48 Y137.82 E232.75415
G0 F12000 X227.48 Y138.38
G1 F2700 X239.38 Y150.28 E233.31375
G0 F12000 X239.38 Y150.85
G1 F2700 X227.48 Y138.95 E233.87330
G0 F12000 X227.48 Y139.52
G1 F2700 X239.38 Y151.41 E234.43285
G0 F12000 X239.38 Y151.98
G1 F2700 X227.48 Y140.08 E234.99243
G0 F12000 X227.48 Y140.65
G1 F2700 X239.38 Y152.54 E235.55198
G0 F12000 X239.38 Y153.11
G1 F2700 X227.48 Y141.21 E236.11153
G0 F12000 X227.48 Y141.78
G1 F2700 X239.38 Y153.68 E236.67111
G0 F12000 X239.38 Y154.24
G1 F2700 X227.48 Y142.34 E237.23066
G0 F12000 X227.48 Y142.91
G1 F2700 X239.38 Y154.81 E237.79021
G0 F12000 X239.38 Y155.37
G1 F2700 X227.48 Y143.48 E238.34976
G0 F12000 X227.48 Y144.04
G1 F2700 X239.38 Y155.94 E238.90929
G0 F12000 X239.38 Y156.50
G1 F2700 X227.48 Y144.61 E239.46884
G0 F12000 X227.48 Y145.17
G1 F2700 X239.38 Y157.07 E240.02839
G0 F12000 X239.38 Y157.64
G1 F2700 X227.48 Y145.74 E240.58794
G0 F12000 X227.48 Y146.31
G1 F2700 X228.58 Y147.40 E240.63957
G0 F12000 X227.92 Y147.31
G1 F2700 X227.48 Y146.87 E240.66007
G0 F12000 X231.20 Y150.02
G1 F2700 X239.38 Y158.20 E241.04488
G0 F12000 X239.38 Y158.77
G1 F2700 X231.43 Y150.82 E241.41854
G0 F12000 X231.67 Y151.62
G1 F2700 X239.38 Y159.33 E241.78108
G0 F12000 X239.38 Y159.90
G1 F2700 X231.91 Y152.43 E242.13247
G0 F12000 X231.81 Y152.90
G1 F2700 X239.38 Y160.46 E242.48835
G0 F12000 X239.38 Y161.03
G1 F2700 X231.68 Y153.34 E242.85030
G0 F12000 X231.55 Y153.77
G1 F2700 X239.38 Y161.59 E243.21827
G0 F12000 X239.38 Y162.16
G1 F2700 X231.43 Y154.21 E243.59226
G0 F12000 X231.30 Y154.65
G1 F2700 X239.38 Y162.73 E243.97232
G0 F12000 X239.38 Y163.29
G1 F2700 X231.17 Y155.08 E244.35842
G0 F12000 X231.04 Y155.52
G1 F2700 X239.38 Y163.86 E244.75057
G0 F12000 X239.38 Y164.42
G1 F2700 X230.74 Y155.79 E245.15688
G0 F12000 X230.44 Y156.05
G1 F2700 X239.38 Y164.99 E245.57748
G0 F12000 X239.38 Y165.56
G1 F2700 X230.13 Y156.31 E246.01238
G0 F12000 X229.83 Y156.57
G1 F2700 X239.38 Y166.12 E246.46159
G0 F12000 X239.38 Y166.69
G1 F2700 X229.52 Y156.83 E246.92509
G0 F12000 X229.22 Y157.09
G1 F2700 X239.38 Y167.25 E247.40287
G0 F12000 X239.38 Y167.82
G1 F2700 X228.91 Y157.36 E247.89497
G0 F12000 X228.59 Y157.59
G1 F2700 X239.38 Y168.38 E248.40249
G0 F12000 X239.38 Y168.95
G1 F2700 X228.09 Y157.67 E248.93321
G0 F12000 X227.60 Y157.74
G1 F2700 X239.38 Y169.51 E249.48712
G0 F12000 X239.38 Y170.08
G1 F2700 X227.48 Y158.19 E250.04667
G0 F12000 X227.48 Y158.75
G1 F2700 X239.38 Y170.65 E250.60620
G0 F12000 X239.38 Y171.21
G1 F2700 X227.48 Y159.32 E251.16575
G0 F12000 X227.48 Y159.88
G1 F2700 X239.38 Y171.78 E251.72530
G0 F12000 X239.38 Y172.34
G1 F2700 X227.48 Y160.45 E252.28483
G0 F12000 X227.48 Y161.01
G1 F2700 X239.38 Y172.91 E252.84438
G0 F12000 X239.38 Y173.47
G1 F2700 X227.48 Y161.58 E253.40393
G0 F12000 X227.48 Y162.14
G1 F2700 X239.30 Y173.96 E253.95970
G0 F12000 X239.09 Y174.32
G1 F2700 X227.48 Y162.71 E254.50570
G0 F12000 X227.48 Y163.28
G1 F2700 X238.88 Y174.68 E255.04204
G0 F12000 X238.68 Y175.04
G1 F2700 X227.48 Y163.84 E255.56862
G0 F12000 X227.48 Y164.41
G1 F2700 X238.47 Y175.40 E256.08544
G0 F12000 X238.26 Y175.75
G1 F2700 X227.48 Y164.97 E256.59252
G0 F12000 X227.48 Y165.54
G1 F2700 X238.05 Y176.11 E257.08986
G0 F12000 X237.85 Y176.47
G1 F2700 X227.48 Y166.10 E257.57745
G0 F12000 X227.48 Y166.67
G1 F2700 X237.64 Y176.83 E258.05534
G0 F12000 X237.43 Y177.19
G1 F2700 X227.48 Y167.23 E258.52353
G0 F12000 X227.48 Y167.80
G1 F2700 X237.23 Y177.55 E258.98195
G0 F12000 X237.02 Y177.91
G1 F2700 X227.48 Y168.37 E259.43063
G0 F12000 X227.48 Y168.93
G1 F2700 X236.81 Y178.26 E259.86956
G0 F12000 X236.60 Y178.62
G1 F2700 X227.48 Y169.50 E260.29877
G0 F12000 X227.48 Y170.06
G1 F2700 X236.40 Y178.98 E260.71820
G0 F12000 X236.19 Y179.34
G1 F2700 X227.48 Y170.63 E261.12789
G0 F12000 X227.48 Y171.19
G1 F2700 X235.98 Y179.70 E261.52792
G0 F12000 X235.78 Y180.06
G1 F2700 X227.48 Y171.76 E261.91818
G0 F12000 X227.48 Y172.32
G1 F2700 X235.57 Y180.41 E262.29871
G0 F12000 X235.36 Y180.77
G1 F2700 X227.48 Y172.89 E262.66948
G0 F12000 X227.48 Y173.46
G1 F2700 X235.16 Y181.13 E263.03053
G0 F12000 X234.95 Y181.49
G1 F2700 X227.48 Y174.02 E263.38183
G0 F12000 X227.48 Y174.59
G1 F2700 X234.74 Y181.85 E263.72339
G0 F12000 X234.53 Y182.21
G1 F2700 X227.48 Y175.15 E264.05523
G0 F12000 X227.48 Y175.72
G1 F2700 X234.33 Y182.57 E264.37737
G0 F12000 X234.12 Y182.93
G1 F2700 X227.48 Y176.28 E264.68974
G0 F12000 X227.48 Y176.85
G1 F2700 X233.91 Y183.28 E264.99237
G0 F12000 X233.71 Y183.64
G1 F2700 X227.48 Y177.41 E265.28525
G0 F12000 X227.48 Y177.98
G1 F2700 X233.50 Y184.00 E265.56839
G0 F12000 X233.29 Y184.36
G1 F2700 X227.48 Y178.55 E265.84177
G0 F12000 X227.48 Y179.11
G1 F2700 X233.20 Y184.84 E266.11098
G0 F12000 X233.20 Y185.40
G1 F2700 X227.47 Y179.67 E266.38062
G0 F12000 X227.40 Y180.17
G1 F2700 X233.20 Y185.97 E266.65334
G0 F12000 X233.20 Y186.53
G1 F2700 X227.34 Y180.67 E266.92917
G0 F12000 X227.27 Y181.17
G1 F2700 X233.20 Y187.10 E267.20810
G0 F12000 X233.20 Y187.66
G1 F2700 X227.21 Y181.67 E267.49011
G0 F12000 X227.14 Y182.17
G1 F2700 X233.20 Y188.23 E267.77520
G0 F12000 X233.20 Y188.80
G1 F2700 X227.07 Y182.67 E268.06339
G0 F12000 X227.01 Y183.17
G1 F2700 X233.20 Y189.36 E268.35469
G0 F12000 X233.20 Y189.93
G1 F2700 X226.94 Y183.67 E268.64910
G0 F12000 X226.88 Y184.17
G1 F2700 X233.20 Y190.49 E268.94660
G0 F12000 X233.20 Y191.06
G1 F2700 X226.81 Y184.67 E269.24719
G0 F12000 X226.71 Y185.13
G1 F2700 X233.20 Y191.62 E269.55265
G0 F12000 X233.20 Y192.19
G1 F2700 X226.54 Y185.53 E269.86594
G0 F12000 X226.38 Y185.93
G1 F2700 X233.20 Y192.75 E270.18699
G0 F12000 X233.20 Y193.32
G1 F2700 X226.21 Y186.33 E270.51587
G0 F12000 X226.04 Y186.73
G1 F2700 X233.20 Y193.89 E270.85254
G0 F12000 X233.20 Y194.45
G1 F2700 X225.88 Y187.13 E271.19702
G0 F12000 X225.71 Y187.53
G1 F2700 X233.20 Y195.02 E271.54928
G0 F12000 X233.20 Y195.58
G1 F2700 X225.55 Y187.93 E271.90934
G0 F12000 X225.38 Y188.33
G1 F2700 X233.20 Y196.15 E272.27724
G0 F12000 X233.20 Y196.72
G1 F2700 X225.22 Y188.73 E272.65293
G0 F12000 X225.05 Y189.13
G1 F2700 X233.20 Y197.28 E273.03642
G0 F12000 X233.20 Y197.85
G1 F2700 X224.88 Y189.53 E273.42772
G0 F12000 X224.72 Y189.93
G1 F2700 X233.20 Y198.41 E273.82680
G0 F12000 X233.20 Y198.98
G1 F2700 X224.50 Y190.28 E274.23603
G0 F12000 X224.26 Y190.60
G1 F2700 X233.20 Y199.54 E274.65684
G0 F12000 X233.20 Y200.11
G1 F2700 X224.01 Y190.92 E275.08918
G0 F12000 X223.76 Y191.24
G1 F2700 X233.20 Y200.68 E275.53307
G0 F12000 X233.20 Y201.24
G1 F2700 X223.52 Y191.56 E275.98853
G0 F12000 X223.27 Y191.88
G1 F2700 X233.20 Y201.81 E276.45553
G0 F12000 X233.20 Y202.37
G1 F2700 X223.03 Y192.20 E276.93413
G0 F12000 X222.78 Y192.52
G1 F2700 X233.20 Y202.94 E277.42426
G0 F12000 X233.20 Y203.50
G1 F2700 X222.54 Y192.84 E277.92595
G0 F12000 X222.29 Y193.16
G1 F2700 X233.20 Y204.07 E278.43917
G0 F12000 X233.20 Y204.63
G1 F2700 X222.04 Y193.48 E278.96401
G0 F12000 X221.80 Y193.80
G1 F2700 X233.20 Y205.20 E279.50035
G0 F12000 X233.20 Y205.77
G1 F2700 X221.55 Y194.12 E280.04828
G0 F12000 X221.31 Y194.44
G1 F2700 X233.20 Y206.33 E280.60774
G0 F12000 X232.66 Y206.36
G1 F2700 X220.99 Y194.69 E281.15662
G0 F12000 X220.67 Y194.94
G1 F2700 X232.10 Y206.36 E281.69397
G0 F12000 X231.53 Y206.36
G1 F2700 X220.35 Y195.18 E282.21979
G0 F12000 X220.03 Y195.43
G1 F2700 X230.97 Y206.36 E282.73407
G0 F12000 X230.40 Y206.36
G1 F2700 X219.71 Y195.67 E283.23680
G0 F12000 X219.39 Y195.91
G1 F2700 X229.84 Y206.36 E283.72805
G0 F12000 X229.27 Y206.36
G1 F2700 X219.07 Y196.16 E284.20774
G0 F12000 X218.75 Y196.41
G1 F2700 X228.70 Y206.36 E284.67587
G0 F12000 X228.14 Y206.36
G1 F2700 X218.43 Y196.65 E285.13248
G0 F12000 X218.11 Y196.90
G1 F2700 X227.57 Y206.36 E285.57759
G0 F12000 X227.01 Y206.36
G1 F2700 X217.79 Y197.14 E286.01113
G0 F12000 X217.47 Y197.39
G1 F2700 X226.44 Y206.36 E286.43315
G0 F12000 X225.88 Y206.36
G1 F2700 X217.15 Y197.63 E286.84364
G0 F12000 X216.81 Y197.86
G1 F2700 X225.31 Y206.36 E287.24336
G0 F12000 X224.74 Y206.36
G1 F2700 X216.41 Y198.03 E287.63530
G0 F12000 X216.01 Y198.19
G1 F2700 X224.18 Y206.36 E288.01945
G0 F12000 X223.61 Y206.36
G1 F2700 X215.61 Y198.36 E288.39584
G0 F12000 X215.21 Y198.52
G1 F2700 X223.05 Y206.36 E288.76439
G0 F12000 X222.48 Y206.36
G1 F2700 X214.81 Y198.69 E289.12517
G0 F12000 X214.41 Y198.85
G1 F2700 X221.91 Y206.36 E289.47816
G0 F12000 X221.35 Y206.36
G1 F2700 X214.01 Y199.02 E289.82334
G0 F12000 X213.61 Y199.19
G1 F2700 X220.78 Y206.36 E290.16073
G0 F12000 X220.22 Y206.36
G1 F2700 X213.21 Y199.35 E290.49034
G0 F12000 X212.81 Y199.52
G1 F2700 X219.65 Y206.36 E290.81217
G0 F12000 X219.09 Y206.36
G1 F2700 X212.41 Y199.68 E291.12619
G0 F12000 X212.01 Y199.85
G1 F2700 X218.52 Y206.36 E291.43242
G0 F12000 X217.96 Y206.36
G1 F2700 X211.56 Y199.96 E291.73327
G0 F12000 X211.06 Y200.03
G1 F2700 X217.39 Y206.36 E292.03101
G0 F12000 X216.82 Y206.36
G1 F2700 X210.56 Y200.09 E292.32568
G0 F12000 X210.06 Y200.16
G1 F2700 X216.26 Y206.36 E292.61724
G0 F12000 X215.69 Y206.36
G1 F2700 X209.56 Y200.23 E292.90569
G0 F12000 X209.06 Y200.29
G1 F2700 X215.13 Y206.36 E293.19104
G0 F12000 X214.56 Y206.36
G1 F2700 X208.56 Y200.36 E293.47328
G0 F12000 X208.06 Y200.43
G1 F2700 X214.00 Y206.36 E293.75240
G0 F12000 X213.43 Y206.36
G1 F2700 X207.56 Y200.49 E294.02844
G0 F12000 X207.06 Y200.56
G1 F2700 X212.86 Y206.36 E294.30137
G0 F12000 X212.30 Y206.36
G1 F2700 X206.56 Y200.62 E294.57117
G0 F12000 X206.01 Y200.64
G1 F2700 X211.73 Y206.36 E294.84027
G0 F12000 X211.17 Y206.36
G1 F2700 X205.45 Y200.64 E295.10935
G0 F12000 X204.88 Y200.64
G1 F2700 X210.60 Y206.36 E295.37842
G0 F12000 X210.04 Y206.36
G1 F2700 X204.31 Y200.64 E295.64752
G0 F12000 X203.75 Y200.64
G1 F2700 X209.47 Y206.36 E295.91662
G0 F12000 X208.90 Y206.36
G1 F2700 X203.18 Y200.64 E296.18569
G0 F12000 X202.62 Y200.64
G1 F2700 X208.34 Y206.36 E296.45479
G0 F12000 X207.77 Y206.36
G1 F2700 X202.05 Y200.64 E296.72384
G0 F12000 X201.49 Y200.64
G1 F2700 X207.21 Y206.36 E296.99289
G0 F12000 X206.64 Y206.36
G1 F2700 X200.92 Y200.64 E297.26194
G0 F12000 X200.36 Y200.64
G1 F2700 X206.08 Y206.36 E297.53100
G0 F12000 X205.51 Y206.36
G1 F2700 X199.79 Y200.64 E297.80005
G0 F12000 X199.22 Y200.64
G1 F2700 X204.94 Y206.36 E298.06910
G0 F12000 X204.38 Y206.36
G1 F2700 X198.66 Y200.64 E298.33815
G0 F12000 X198.09 Y200.64
G1 F2700 X203.81 Y206.36 E298.60720
G0 F12000 X203.25 Y206.36
G1 F2700 X197.53 Y200.64 E298.87621
G0 F12000 X196.96 Y200.64
G1 F2700 X202.68 Y206.36 E299.14521
G0 F12000 X202.12 Y206.36
G1 F2700 X196.40 Y200.64 E299.41421
G0 F12000 X195.83 Y200.64
G1 F2700 X201.55 Y206.36 E299.68322
G0 F12000 X200.99 Y206.36
G1 F2700 X195.27 Y200.64 E299.95222
G0 F12000 X194.70 Y200.64
G1 F2700 X200.42 Y206.36 E300.22123
G0 F12000 X199.85 Y206.36
G1 F2700 X194.13 Y200.64 E300.49023
G0 F12000 X193.57 Y200.64
G1 F2700 X199.29 Y206.36 E300.75923
G0 F12000 X198.72 Y206.36
G1 F2700 X193.00 Y200.64 E301.02822
G0 F12000 X192.44 Y200.64
G1 F2700 X198.16 Y206.36 E301.29720
G0 F12000 X197.59 Y206.36
G1 F2700 X191.87 Y200.64 E301.56620
G0 F12000 X191.31 Y200.64
G1 F2700 X197.03 Y206.36 E301.83518
G0 F12000 X196.46 Y206.36
G1 F2700 X190.74 Y200.64 E302.10416
G0 F12000 X190.18 Y200.64
G1 F2700 X195.89 Y206.36 E302.37317
G0 F12000 X195.33 Y206.36
G1 F2700 X189.61 Y200.64 E302.64217
G0 F12000 X189.04 Y200.64
G1 F2700 X194.76 Y206.36 E302.91113
G0 F12000 X194.20 Y206.36
G1 F2700 X188.48 Y200.64 E303.18006
G0 F12000 X187.91 Y200.64
G1 F2700 X193.63 Y206.36 E303.44902
G0 F12000 X193.06 Y206.36
G1 F2700 X187.35 Y200.64 E303.71798
G0 F12000 X186.78 Y200.64
G1 F2700 X192.50 Y206.36 E303.98691
G0 F12000 X191.93 Y206.36
G1 F2700 X186.22 Y200.64 E304.25587
G0 F12000 X185.65 Y200.64
G1 F2700 X191.37 Y206.36 E304.52482
G0 F12000 X190.80 Y206.36
G1 F2700 X185.09 Y200.64 E304.79373
G0 F12000 X184.52 Y200.64
G1 F2700 X190.24 Y206.36 E305.06264
G0 F12000 X189.67 Y206.36
G1 F2700 X183.95 Y200.64 E305.33155
G0 F12000 X183.39 Y200.64
G1 F2700 X189.10 Y206.36 E305.60046
G0 F12000 X188.54 Y206.36
G1 F2700 X182.82 Y200.64 E305.86937
G0 F12000 X182.26 Y200.64
G1 F2700 X187.97 Y206.36 E306.13828
G0 F12000 X187.41 Y206.36
G1 F2700 X181.69 Y200.64 E306.40719
G0 F12000 X181.13 Y200.64
G1 F2700 X186.84 Y206.36 E306.67610
G0 F12000 X186.28 Y206.36
G1 F2700 X180.56 Y200.64 E306.94499
G0 F12000 X180.00 Y200.64
G1 F2700 X185.71 Y206.36 E307.21388
G0 F12000 X185.15 Y206.36
G1 F2700 X179.43 Y200.64 E307.48279
G0 F12000 X178.86 Y200.64
G1 F2700 X184.58 Y206.36 E307.75168
G0 F12000 X184.01 Y206.36
G1 F2700 X178.30 Y200.64 E308.02056
G0 F12000 X177.73 Y200.64
G1 F2700 X183.45 Y206.36 E308.28945
G0 F12000 X182.88 Y206.36
G1 F2700 X177.17 Y200.64 E308.55833
G0 F12000 X176.60 Y200.64
G1 F2700 X182.32 Y206.36 E308.82717
G0 F12000 X181.75 Y206.36
G1 F2700 X176.04 Y200.64 E309.09601
G0 F12000 X175.47 Y200.64
G1 F2700 X181.19 Y206.36 E309.36488
G0 F12000 X180.62 Y206.36
G1 F2700 X174.90 Y200.64 E309.63374
G0 F12000 X174.34 Y200.64
G1 F2700 X180.05 Y206.36 E309.90258
G0 F12000 X179.49 Y206.36
G1 F2700 X173.77 Y200.64 E310.17144
G0 F12000 X173.21 Y200.64
G1 F2700 X178.92 Y206.36 E310.44031
G0 F12000 X178.36 Y206.36
G1 F2700 X172.64 Y200.64 E310.70915
G0 F12000 X172.08 Y200.64
G1 F2700 X177.79 Y206.36 E310.97796
G0 F12000 X177.23 Y206.36
G1 F2700 X171.51 Y200.64 E311.24678
G0 F12000 X170.94 Y200.64
G1 F2700 X176.66 Y206.36 E311.51559
G0 F12000 X176.09 Y206.36
G1 F2700 X170.38 Y200.64 E311.78441
G0 F12000 X169.81 Y200.64
G1 F2700 X175.53 Y206.36 E312.05323
G0 F12000 X174.96 Y206.36
G1 F2700 X169.25 Y200.64 E312.32204
G0 F12000 X168.68 Y200.64
G1 F2700 X174.40 Y206.36 E312.59083
G0 F12000 X173.83 Y206.36
G1 F2700 X168.12 Y200.65 E312.85960
G0 F12000 X167.55 Y200.65
G1 F2700 X173.27 Y206.36 E313.12837
G0 F12000 X172.70 Y206.36
G1 F2700 X166.99 Y200.65 E313.39714
G0 F12000 X166.42 Y200.65
G1 F2700 X172.13 Y206.36 E313.66591
G0 F12000 X171.57 Y206.36
G1 F2700 X165.85 Y200.65 E313.93468
G0 F12000 X165.29 Y200.65
G1 F2700 X171.00 Y206.36 E314.20345
G0 F12000 X170.44 Y206.36
G1 F2700 X164.72 Y200.65 E314.47222
G0 F12000 X164.16 Y200.65
G1 F2700 X169.87 Y206.36 E314.74099
G0 F12000 X169.31 Y206.36
G1 F2700 X163.59 Y200.65 E315.00973
G0 F12000 X163.03 Y200.65
G1 F2700 X168.74 Y206.36 E315.27850
G0 F12000 X168.18 Y206.36
G1 F2700 X162.46 Y200.65 E315.54725
G0 F12000 X161.90 Y200.65
G1 F2700 X167.61 Y206.36 E315.81599
G0 F12000 X167.04 Y206.36
G1 F2700 X161.33 Y200.65 E316.08476
G0 F12000 X160.76 Y200.65
G1 F2700 X166.48 Y206.36 E316.35353
G0 F12000 X165.91 Y206.36
G1 F2700 X160.20 Y200.65 E316.62228
G0 F12000 X159.63 Y200.65
G1 F2700 X165.35 Y206.36 E316.89100
G0 F12000 X164.78 Y206.36
G1 F2700 X159.07 Y200.65 E317.15972
G0 F12000 X158.50 Y200.65
G1 F2700 X164.22 Y206.36 E317.42844
G0 F12000 X163.65 Y206.36
G1 F2700 X157.94 Y200.65 E317.69714
G0 F12000 X157.37 Y200.65
G1 F2700 X163.08 Y206.36 E317.96586
G0 F12000 X162.52 Y206.36
G1 F2700 X156.81 Y200.65 E318.23458
G0 F12000 X156.24 Y200.65
G1 F2700 X161.95 Y206.36 E318.50328
G0 F12000 X161.39 Y206.36
G1 F2700 X155.67 Y200.65 E318.77201
G0 F12000 X155.11 Y200.65
G1 F2700 X160.82 Y206.36 E319.04068
G0 F12000 X160.25 Y206.36
G1 F2700 X154.54 Y200.65 E319.30936
G0 F12000 X153.98 Y200.65
G1 F2700 X159.69 Y206.36 E319.57803
G0 F12000 X159.12 Y206.36
G1 F2700 X153.41 Y200.65 E319.84671
G0 F12000 X152.85 Y200.65
G1 F2700 X158.56 Y206.36 E320.11538
G0 F12000 X157.99 Y206.36
G1 F2700 X152.28 Y200.65 E320.38406
G0 F12000 X151.72 Y200.65
G1 F2700 X157.43 Y206.36 E320.65273
G0 F12000 X156.86 Y206.36
G1 F2700 X151.15 Y200.65 E320.92138
G0 F12000 X150.58 Y200.65
G1 F2700 X156.30 Y206.36 E321.19006
G0 F12000 X155.73 Y206.36
G1 F2700 X150.02 Y200.65 E321.45871
G0 F12000 X149.45 Y200.65
G1 F2700 X155.16 Y206.36 E321.72736
G0 F12000 X154.60 Y206.36
G1 F2700 X148.89 Y200.65 E321.99601
G0 F12000 X148.32 Y200.65
G1 F2700 X154.03 Y206.36 E322.26466
G0 F12000 X153.47 Y206.36
G1 F2700 X147.76 Y200.65 E322.53331
G0 F12000 X147.19 Y200.65
G1 F2700 X152.90 Y206.36 E322.80197
G0 F12000 X152.34 Y206.36
G1 F2700 X146.62 Y200.65 E323.07059
G0 F12000 X146.06 Y200.65
G1 F2700 X151.77 Y206.36 E323.33922
G0 F12000 X151.20 Y206.36
G1 F2700 X145.49 Y200.65 E323.60783
G0 F12000 X144.93 Y200.65
G1 F2700 X150.64 Y206.36 E323.87645
G0 F12000 X150.07 Y206.36
G1 F2700 X144.36 Y200.65 E324.14508
G0 F12000 X143.80 Y200.65
G1 F2700 X149.51 Y206.36 E324.41369
G0 F12000 X148.94 Y206.36
G1 F2700 X143.23 Y200.65 E324.68231
G0 F12000 X142.67 Y200.65
G1 F2700 X148.38 Y206.36 E324.95089
G0 F12000 X147.81 Y206.36
G1 F2700 X142.10 Y200.65 E325.21948
G0 F12000 X141.53 Y200.65
G1 F2700 X147.25 Y206.36 E325.48806
G0 F12000 X146.68 Y206.36
G1 F2700 X140.97 Y200.65 E325.75664
G0 F12000 X140.40 Y200.65
G1 F2700 X146.11 Y206.36 E326.02522
G0 F12000 X145.55 Y206.36
G1 F2700 X139.84 Y200.65 E326.29380
G0 F12000 X139.27 Y200.65
G1 F2700 X144.98 Y206.36 E326.56238
G0 F12000 X144.42 Y206.36
G1 F2700 X138.71 Y200.65 E326.83096
G0 F12000 X138.14 Y200.65
G1 F2700 X143.85 Y206.36 E327.09949
G0 F12000 X143.28 Y206.36
G1 F2700 X137.58 Y200.65 E327.36803
G0 F12000 X137.01 Y200.65
G1 F2700 X142.72 Y206.36 E327.63656
G0 F12000 X142.15 Y206.36
G1 F2700 X136.44 Y200.65 E327.90510
G0 F12000 X135.88 Y200.65
G1 F2700 X141.59 Y206.36 E328.17363
G0 F12000 X141.02 Y206.36
G1 F2700 X135.31 Y200.65 E328.44216
G0 F12000 X134.75 Y200.65
G1 F2700 X140.46 Y206.36 E328.71070
G0 F12000 X139.89 Y206.36
G1 F2700 X134.18 Y200.65 E328.97923
G0 F12000 X133.62 Y200.65
G1 F2700 X139.32 Y206.36 E329.24774
G0 F12000 X138.76 Y206.36
G1 F2700 X133.05 Y200.65 E329.51625
G0 F12000 X132.49 Y200.65
G1 F2700 X138.19 Y206.36 E329.78479
G0 F12000 X137.63 Y206.36
G1 F2700 X131.92 Y200.65 E330.05332
G0 F12000 X131.35 Y200.65
G1 F2700 X137.06 Y206.36 E330.32183
G0 F12000 X136.50 Y206.36
G1 F2700 X130.79 Y200.65 E330.59036
G0 F12000 X130.22 Y200.65
G1 F2700 X135.93 Y206.36 E330.85890
G0 F12000 X135.37 Y206.36
G1 F2700 X129.66 Y200.65 E331.12739
G0 F12000 X129.09 Y200.65
G1 F2700 X134.80 Y206.36 E331.39587
G0 F12000 X134.23 Y206.36
G1 F2700 X128.53 Y200.65 E331.66436
G0 F12000 X127.96 Y200.65
G1 F2700 X133.67 Y206.36 E331.93285
G0 F12000 X133.10 Y206.36
G1 F2700 X127.39 Y200.65 E332.20131
G0 F12000 X126.83 Y200.65
G1 F2700 X132.54 Y206.36 E332.46980
G0 F12000 X131.97 Y206.36
G1 F2700 X126.26 Y200.65 E332.73828
G0 F12000 X125.70 Y200.65
G1 F2700 X131.41 Y206.36 E333.00672
G0 F12000 X130.84 Y206.36
G1 F2700 X125.13 Y200.65 E333.27516
G0 F12000 X124.57 Y200.65
G1 F2700 X130.27 Y206.36 E333.54360
G0 F12000 X129.71 Y206.36
G1 F2700 X124.00 Y200.65 E333.81204
G0 F12000 X123.44 Y200.65
G1 F2700 X129.14 Y206.36 E334.08048
G0 F12000 X128.58 Y206.36
G1 F2700 X122.87 Y200.65 E334.34892
G0 F12000 X122.30 Y200.65
G1 F2700 X128.01 Y206.36 E334.61736
G0 F12000 X127.45 Y206.36
G1 F2700 X121.74 Y200.65 E334.88580
G0 F12000 X121.17 Y200.65
G1 F2700 X126.88 Y206.36 E335.15422
G0 F12000 X126.31 Y206.36
G1 F2700 X120.61 Y200.65 E335.42263
G0 F12000 X120.04 Y200.65
G1 F2700 X125.75 Y206.36 E335.69107
G0 F12000 X125.18 Y206.36
G1 F2700 X119.48 Y200.65 E335.95949
G0 F12000 X118.91 Y200.65
G1 F2700 X124.62 Y206.36 E336.22791
G0 F12000 X124.05 Y206.36
G1 F2700 X118.34 Y200.65 E336.49632
G0 F12000 X117.78 Y200.65
G1 F2700 X123.49 Y206.36 E336.76476
G0 F12000 X122.92 Y206.36
G1 F2700 X117.21 Y200.65 E337.03315
G0 F12000 X116.65 Y200.65
G1 F2700 X122.35 Y206.36 E337.30152
G0 F12000 X121.79 Y206.36
G1 F2700 X116.08 Y200.65 E337.56992
G0 F12000 X115.52 Y200.65
G1 F2700 X121.22 Y206.36 E337.83831
G0 F12000 X120.66 Y206.36
G1 F2700 X114.95 Y200.65 E338.10668
G0 F12000 X114.39 Y200.65
G1 F2700 X120.09 Y206.36 E338.37507
G0 F12000 X119.53 Y206.36
G1 F2700 X113.82 Y200.65 E338.64346
G0 F12000 X113.25 Y200.65
G1 F2700 X118.96 Y206.36 E338.91183
G0 F12000 X118.39 Y206.36
G1 F2700 X112.69 Y200.65 E339.18018
G0 F12000 X112.12 Y200.65
G1 F2700 X117.83 Y206.36 E339.44852
G0 F12000 X117.26 Y206.36
G1 F2700 X111.56 Y200.65 E339.71687
G0 F12000 X110.99 Y200.65
G1 F2700 X116.70 Y206.36 E339.98522
G0 F12000 X116.13 Y206.36
G1 F2700 X110.43 Y200.65 E340.25356
G0 F12000 X109.86 Y200.65
G1 F2700 X115.57 Y206.36 E340.52191
G0 F12000 X115.00 Y206.36
G1 F2700 X109.30 Y200.65 E340.79025
G0 F12000 X108.73 Y200.65
G1 F2700 X114.44 Y206.36 E341.05858
G0 F12000 X113.87 Y206.36
G1 F2700 X108.17 Y200.65 E341.32690
G0 F12000 X107.60 Y200.65
G1 F2700 X113.30 Y206.36 E341.59522
G0 F12000 X112.74 Y206.36
G1 F2700 X107.03 Y200.65 E341.86354
G0 F12000 X106.47 Y200.65
G1 F2700 X112.17 Y206.36 E342.13186
G0 F12000 X111.61 Y206.36
G1 F2700 X105.90 Y200.65 E342.40019
G0 F12000 X105.34 Y200.65
G1 F2700 X111.04 Y206.36 E342.66853
G0 F12000 X110.47 Y206.36
G1 F2700 X104.77 Y200.65 E342.93685
G0 F12000 X104.21 Y200.66
G1 F2700 X109.91 Y206.36 E343.20513
G0 F12000 X109.34 Y206.36
G1 F2700 X103.64 Y200.66 E343.47343
G0 F12000 X103.07 Y200.66
G1 F2700 X108.78 Y206.36 E343.74173
G0 F12000 X108.21 Y206.36
G1 F2700 X102.51 Y200.66 E344.01000
G0 F12000 X101.94 Y200.66
G1 F2700 X107.65 Y206.36 E344.27830
G0 F12000 X107.08 Y206.36
G1 F2700 X101.38 Y200.66 E344.54660
G0 F12000 X100.81 Y200.66
G1 F2700 X106.52 Y206.36 E344.81487
G0 F12000 X105.95 Y206.36
G1 F2700 X100.25 Y200.66 E345.08313
G0 F12000 X99.68 Y200.66
G1 F2700 X105.38 Y206.36 E345.35138
G0 F12000 X104.82 Y206.36
G1 F2700 X99.11 Y200.66 E345.61963
G0 F12000 X98.55 Y200.66
G1 F2700 X104.25 Y206.36 E345.88786
G0 F12000 X103.69 Y206.36
G1 F2700 X97.98 Y200.66 E346.15611
G0 F12000 X97.42 Y200.66
G1 F2700 X103.12 Y206.36 E346.42436
G0 F12000 X102.56 Y206.36
G1 F2700 X96.85 Y200.66 E346.69259
G0 F12000 X96.29 Y200.66
G1 F2700 X101.99 Y206.36 E346.96084
G0 F12000 X101.42 Y206.36
G1 F2700 X95.72 Y200.66 E347.22904
G0 F12000 X95.16 Y200.66
G1 F2700 X100.86 Y206.36 E347.49725
G0 F12000 X100.29 Y206.36
G1 F2700 X94.59 Y200.66 E347.76545
G0 F12000 X94.03 Y200.66
G1 F2700 X99.73 Y206.36 E348.03366
G0 F12000 X99.16 Y206.36
G1 F2700 X93.46 Y200.66 E348.30186
G0 F12000 X92.89 Y200.66
G1 F2700 X98.60 Y206.36 E348.57007
G0 F12000 X98.03 Y206.36
G1 F2700 X92.33 Y200.66 E348.83827
G0 F12000 X91.76 Y200.66
G1 F2700 X97.46 Y206.36 E349.10645
G0 F12000 X96.90 Y206.36
G1 F2700 X91.20 Y200.66 E349.37466
G0 F12000 X90.63 Y200.66
G1 F2700 X96.33 Y206.36 E349.64286
G0 F12000 X95.77 Y206.36
G1 F2700 X90.07 Y200.66 E349.91104
G0 F12000 X89.50 Y200.66
G1 F2700 X95.20 Y206.36 E350.17925
G0 F12000 X94.64 Y206.36
G1 F2700 X88.93 Y200.66 E350.44745
G0 F12000 X88.37 Y200.66
G1 F2700 X94.07 Y206.36 E350.71563
G0 F12000 X93.50 Y206.36
G1 F2700 X87.80 Y200.66 E350.98382
G0 F12000 X87.24 Y200.66
G1 F2700 X92.94 Y206.36 E351.25197
G0 F12000 X92.37 Y206.36
G1 F2700 X86.67 Y200.66 E351.52013
G0 F12000 X86.11 Y200.66
G1 F2700 X91.81 Y206.36 E351.78826
G0 F12000 X91.24 Y206.36
G1 F2700 X85.54 Y200.66 E352.05642
G0 F12000 X84.97 Y200.66
G1 F2700 X90.68 Y206.36 E352.32458
G0 F12000 X90.11 Y206.36
G1 F2700 X84.41 Y200.66 E352.59271
G0 F12000 X83.84 Y200.66
G1 F2700 X89.55 Y206.36 E352.86087
G0 F12000 X88.98 Y206.36
G1 F2700 X83.28 Y200.66 E353.12898
G0 F12000 X82.71 Y200.66
G1 F2700 X88.41 Y206.36 E353.39709
G0 F12000 X87.85 Y206.36
G1 F2700 X82.15 Y200.66 E353.66520
G0 F12000 X81.58 Y200.66
G1 F2700 X87.28 Y206.36 E353.93331
G0 F12000 X86.72 Y206.36
G1 F2700 X81.02 Y200.66 E354.20142
G0 F12000 X80.45 Y200.66
G1 F2700 X86.15 Y206.36 E354.46953
G0 F12000 X85.58 Y206.36
G1 F2700 X79.89 Y200.66 E354.73764
G0 F12000 X79.32 Y200.66
G1 F2700 X85.02 Y206.36 E355.00576
G0 F12000 X84.45 Y206.36
G1 F2700 X78.75 Y200.66 E355.27387
G0 F12000 X78.19 Y200.66
G1 F2700 X83.89 Y206.36 E355.54195
G0 F12000 X83.32 Y206.36
G1 F2700 X77.62 Y200.66 E355.81004
G0 F12000 X77.06 Y200.66
G1 F2700 X82.76 Y206.36 E356.07813
G0 F12000 X82.19 Y206.36
G1 F2700 X76.49 Y200.66 E356.34624
G0 F12000 X75.93 Y200.66
G1 F2700 X81.62 Y206.36 E356.61432
G0 F12000 X81.06 Y206.36
G1 F2700 X75.36 Y200.66 E356.88241
G0 F12000 X74.80 Y200.66
G1 F2700 X80.49 Y206.36 E357.15047
G0 F12000 X79.93 Y206.36
G1 F2700 X74.23 Y200.66 E357.41854
G0 F12000 X73.66 Y200.66
G1 F2700 X79.36 Y206.36 E357.68658
G0 F12000 X78.80 Y206.36
G1 F2700 X73.10 Y200.66 E357.95464
G0 F12000 X72.53 Y200.66
G1 F2700 X78.23 Y206.36 E358.22271
G0 F12000 X77.67 Y206.36
G1 F2700 X71.97 Y200.66 E358.49075
G0 F12000 X71.40 Y200.66
G1 F2700 X77.10 Y206.36 E358.75881
G0 F12000 X76.53 Y206.36
G1 F2700 X70.83 Y200.66 E359.02687
G0 F12000 X70.27 Y200.66
G1 F2700 X75.97 Y206.36 E359.29489
G0 F12000 X75.40 Y206.36
G1 F2700 X69.70 Y200.66 E359.56291
G0 F12000 X69.14 Y200.66
G1 F2700 X74.84 Y206.36 E359.83092
G0 F12000 X74.27 Y206.36
G1 F2700 X68.57 Y200.66 E360.09894
G0 F12000 X68.01 Y200.66
G1 F2700 X73.70 Y206.36 E360.36693
G0 F12000 X73.14 Y206.36
G1 F2700 X67.44 Y200.66 E360.63495
G0 F12000 X66.88 Y200.66
G1 F2700 X72.57 Y206.36 E360.90296
G0 F12000 X72.01 Y206.36
G1 F2700 X66.32 Y200.67 E361.17063
G0 F12000 X66.32 Y201.23
G1 F2700 X71.44 Y206.36 E361.41169
G0 F12000 X70.88 Y206.36
G1 F2700 X66.32 Y201.80 E361.62616
G0 F12000 X66.32 Y202.37
G1 F2700 X70.31 Y206.36 E361.81400
G0 F12000 X69.75 Y206.36
G1 F2700 X66.32 Y202.93 E361.97524
G0 F12000 X66.32 Y203.50
G1 F2700 X69.18 Y206.36 E362.10988
G0 F12000 X68.61 Y206.36
G1 F2700 X66.32 Y204.06 E362.21788
G0 F12000 X66.32 Y204.63
G1 F2700 X68.05 Y206.36 E362.29930
G0 F12000 X67.48 Y206.36
G1 F2700 X66.32 Y205.19 E362.35410
G0 F12000 X66.32 Y205.76
G1 F2700 X66.92 Y206.36 E362.38228
;LAYER:1
G0 F12000 X66.38 Y206.50 Z0.40
;TYPE:WALL-INNER
G1 F3480 X66.22 Y206.49 E362.38773
G1 X66.02 Y206.44 E362.39464
G1 X65.95 Y206.41 E362.39703
G1 X65.80 Y206.30 E362.40334
G1 X65.80 Y200.70 E362.58903
G1 X65.95 Y200.58 E362.59555
G1 X66.17 Y200.52 E362.60302
G1 X66.90 Y200.50 E362.62724
G1 X206.41 Y200.50 E367.25580
G1 X211.78 Y199.79 E367.43557
G1 X216.67 Y197.77 E367.61105
G1 X216.85 Y197.69 E367.61769
G1 X221.04 Y194.47 E367.79274
G1 X221.19 Y194.35 E367.79934
G1 X224.41 Y190.16 E367.97472
G1 X224.53 Y190.00 E367.98135
G1 X226.55 Y185.13 E368.15622
G1 X226.63 Y184.94 E368.16309
G1 X227.33 Y179.64 E368.34054
G1 X227.34 Y178.85 E368.36685
G1 X227.34 Y157.45 E369.07680
G1 X228.40 Y157.29 E369.11248
G1 X228.84 Y157.00 E369.12999
G1 X230.73 Y155.35 E369.21314
G1 X231.58 Y152.50 E369.31184
G1 X230.89 Y150.14 E369.39351
G1 X230.72 Y149.63 E369.41115
G1 X228.85 Y148.00 E369.49363
G1 X228.41 Y147.71 E369.51118
G1 X227.34 Y147.55 E369.54699
G1 X227.34 Y125.44 E370.28080
G1 X226.63 Y120.06 E370.46053
G1 X224.61 Y115.18 E370.63604
G1 X224.53 Y114.99 E370.64268
G1 X221.32 Y110.81 E370.81775
G1 X221.20 Y110.65 E370.82436
G1 X217.00 Y107.43 E370.99971
G1 X216.84 Y107.31 E371.00634
G1 X211.96 Y105.29 E371.18161
G1 X211.79 Y105.21 E371.18805
G1 X206.48 Y104.51 E371.36560
G1 X205.24 Y104.50 E371.40677
G1 X66.38 Y104.50 E376.01386
G1 X66.19 Y104.49 E376.01988
G1 X66.05 Y104.46 E376.02489
G1 X65.96 Y104.42 E376.02815
G1 X65.80 Y104.30 E376.03478
G1 X65.80 Y98.70 E376.22051
G1 X65.94 Y98.59 E376.22665
G1 X66.17 Y98.52 E376.23457
G1 X233.35 Y98.50 E381.78093
G1 X233.35 Y120.45 E382.50917
G1 X239.52 Y131.14 E382.91889
G1 X239.52 Y173.86 E384.33608
G1 X233.35 Y184.55 E384.74580
G1 X233.35 Y206.50 E385.47404
G1 X66.38 Y206.50 E391.01343
G0 F12000 X66.36 Y206.90
G1 F3480 X66.15 Y206.89 E391.02042
G1 X65.90 Y206.82 E391.02914
G1 X65.75 Y206.76 E391.03449
G1 X65.40 Y206.50 E391.04909
G1 X65.40 Y200.50 E391.24802
G1 X65.75 Y200.23 E391.26292
G1 X65.95 Y200.16 E391.26979
G1 X66.12 Y200.12 E391.27554
G1 X66.89 Y200.10 E391.30107
G1 X206.38 Y200.10 E395.92912
G1 X211.68 Y199.40 E396.10628
G1 X216.51 Y197.40 E396.27994
G1 X216.65 Y197.34 E396.28484
G1 X220.79 Y194.16 E396.45819
G1 X220.91 Y194.07 E396.46311
G1 X224.10 Y189.92 E396.63669
G1 X224.19 Y189.80 E396.64162
G1 X226.19 Y184.97 E396.81491
G1 X226.24 Y184.84 E396.81992
G1 X226.93 Y179.61 E396.99476
G1 X226.94 Y178.84 E397.02021
G1 X226.94 Y157.10 E397.74155
G1 X228.26 Y156.91 E397.78568
G1 X228.60 Y156.68 E397.79936
G1 X230.38 Y155.13 E397.87783
G1 X231.17 Y152.50 E397.96877
G1 X230.51 Y150.26 E398.04633
G1 X230.38 Y149.87 E398.06005
G1 X228.60 Y148.32 E398.13813
G1 X228.26 Y148.09 E398.15184
G1 X226.94 Y147.90 E398.19607
G1 X226.94 Y125.46 E398.94046
G1 X226.25 Y120.17 E399.11757
G1 X224.24 Y115.33 E399.29127
G1 X224.18 Y115.19 E399.29617
G1 X221.00 Y111.05 E399.46959
G1 X220.91 Y110.93 E399.47446
G1 X216.76 Y107.75 E399.64805
G1 X216.64 Y107.66 E399.65295
G1 X211.81 Y105.66 E399.82646
G1 X211.68 Y105.60 E399.83122
G1 X206.45 Y104.91 E400.00617
G1 X205.24 Y104.90 E400.04648
G1 X66.36 Y104.90 E404.65400
G1 X66.13 Y104.89 E404.66155
G1 X65.93 Y104.84 E404.66849
G1 X65.76 Y104.77 E404.67454
G1 X65.40 Y104.50 E404.68959
G1 X65.40 Y98.50 E404.88852
G1 X65.75 Y98.24 E404.90316
G1 X65.94 Y98.16 E404.91012
G1 X66.13 Y98.12 E404.91629
G1 X233.75 Y98.10 E410.47738
G1 X233.75 Y120.34 E411.21530
G1 X239.92 Y131.03 E411.62503
G1 X239.92 Y173.97 E413.04932
G1 X233.75 Y184.66 E413.45904
G1 X233.75 Y206.90 E414.19696
G1 X66.36 Y206.90 E419.75016
G0 F12000 X66.35 Y207.30
;TYPE:WALL-OUTER
G1 F3480 X66.09 Y207.28 E419.75865
G1 X65.78 Y207.20 E419.76945
G1 X65.56 Y207.12 E419.77729
G1 X65.02 Y206.71 E419.79970
G1 X65.00 Y206.69 E419.80071
G1 X65.00 Y200.31 E420.01204
G1 X65.01 Y200.29 E420.01305
G1 X65.56 Y199.88 E420.03565
G1 X65.83 Y199.78 E420.04537
G1 X66.07 Y199.72 E420.05337
G1 X66.88 Y199.70 E420.08019
G1 X206.36 Y199.70 E424.70774
G1 X211.57 Y199.01 E424.88229
G1 X216.36 Y197.03 E425.05412
G1 X216.44 Y196.99 E425.05726
G1 X220.63 Y193.78 E425.23217
G1 X223.84 Y189.60 E425.40715
G1 X225.82 Y184.82 E425.57890
G1 X225.86 Y184.73 E425.58208
G1 X226.53 Y179.58 E425.75431
G1 X226.54 Y178.84 E425.77889
G1 X226.54 Y157.34 E426.49223
G1 X224.34 Y156.85 E426.56720
G1 X224.31 Y156.85 E426.56795
G1 X222.67 Y155.58 E426.63691
G1 X221.84 Y153.98 E426.69655
G1 X222.25 Y153.98 E426.71009
G1 X223.39 Y155.75 E426.77987
G1 X225.38 Y156.65 E426.85218
G1 X225.59 Y156.83 E426.86152
G1 X225.92 Y156.85 E426.87232
G1 X228.11 Y156.53 E426.94589
G1 X228.36 Y156.36 E426.95575
G1 X230.03 Y154.90 E427.02952
G1 X230.75 Y152.50 E427.11271
G1 X230.13 Y150.38 E427.18612
G1 X230.03 Y150.09 E427.19601
G1 X228.36 Y148.64 E427.26962
G1 X228.11 Y148.47 E427.27951
G1 X225.92 Y148.15 E427.35310
G1 X225.62 Y148.17 E427.36294
G1 X223.60 Y149.08 E427.43649
G1 X223.37 Y149.28 E427.44636
G1 X222.25 Y151.02 E427.51518
G1 X221.84 Y151.02 E427.52875
G1 X222.67 Y149.42 E427.58838
G1 X224.31 Y148.15 E427.65735
G1 X226.32 Y147.71 E427.72562
G1 X226.54 Y147.66 E427.73308
G1 X226.54 Y125.49 E428.46865
G1 X225.86 Y120.27 E428.64315
G1 X223.87 Y115.49 E428.81502
G1 X223.84 Y115.40 E428.81815
G1 X220.63 Y111.22 E428.99309
G1 X216.44 Y108.01 E429.16804
G1 X211.66 Y106.03 E429.33983
G1 X211.57 Y105.99 E429.34294
G1 X206.43 Y105.31 E429.51521
G1 X205.24 Y105.30 E429.55466
G1 X66.34 Y105.30 E434.16268
G1 X66.08 Y105.28 E434.17159
G1 X65.81 Y105.22 E434.18075
G1 X65.56 Y105.12 E434.18955
G1 X65.02 Y104.71 E434.21216
G1 X65.00 Y104.69 E434.21319
G1 X65.00 Y98.32 E434.42443
G1 X65.02 Y98.29 E434.42576
G1 X65.55 Y97.89 E434.44792
G1 X65.83 Y97.78 E434.45780
G1 X66.08 Y97.72 E434.46625
G1 X234.14 Y97.70 E440.04210
G1 X234.14 Y120.23 E440.78971
G1 X240.32 Y130.93 E441.19944
G1 X240.32 Y174.07 E442.63082
G1 X234.14 Y184.77 E443.04055
G1 X234.14 Y207.30 E443.78816
G1 X66.35 Y207.30 E449.35519
G0 F12000 X66.46 Y206.36
;TYPE:FILL
G1 F3480 X72.19 Y200.63 E449.62387
G0 F12000 X71.62 Y200.63
G1 F3480 X65.99 Y206.27 E449.88826
G0 F12000 X65.94 Y205.76
G1 F3480 X71.06 Y200.63 E450.12877
G0 F12000 X70.50 Y200.63
G1 F3480 X65.94 Y205.20 E450.34282
G0 F12000 X65.94 Y204.63
G1 F3480 X69.93 Y200.63 E450.53038
G0 F12000 X69.37 Y200.63
G1 F3480 X65.94 Y204.07 E450.69145
G0 F12000 X65.94 Y203.50
G1 F3480 X68.80 Y200.63 E450.82606
G0 F12000 X68.24 Y200.63
G1 F3480 X65.94 Y202.94 E450.93421
G0 F12000 X65.94 Y202.38
G1 F3480 X67.67 Y200.63 E451.01588
G0 F12000 X67.11 Y200.63
G1 F3480 X65.94 Y201.81 E451.07105
G0 F12000 X65.94 Y201.25
G1 F3480 X66.54 Y200.65 E451.09932
G0 F12000 X67.03 Y206.36
G1 F3480 X72.75 Y200.63 E451.36803
G0 F12000 X73.32 Y200.63
G1 F3480 X67.59 Y206.36 E451.63674
G0 F12000 X68.16 Y206.36
G1 F3480 X73.88 Y200.63 E451.90544
G0 F12000 X74.45 Y200.63
G1 F3480 X68.72 Y206.36 E452.17415
G0 F12000 X69.28 Y206.36
G1 F3480 X75.01 Y200.63 E452.44286
G0 F12000 X75.58 Y200.63
G1 F3480 X69.85 Y206.36 E452.71156
G0 F12000 X70.41 Y206.36
G1 F3480 X76.14 Y200.63 E452.98027
G0 F12000 X76.70 Y200.63
G1 F3480 X70.98 Y206.36 E453.24898
G0 F12000 X71.54 Y206.36
G1 F3480 X77.27 Y200.63 E453.51769
G0 F12000 X77.83 Y200.63
G1 F3480 X72.11 Y206.36 E453.78639
G0 F12000 X72.67 Y206.36
G1 F3480 X78.40 Y200.63 E454.05508
G0 F12000 X78.96 Y200.63
G1 F3480 X73.23 Y206.36 E454.32378
G0 F12000 X73.80 Y206.36
G1 F3480 X79.53 Y200.63 E454.59249
G0 F12000 X80.09 Y200.63
G1 F3480 X74.36 Y206.36 E454.86120
G0 F12000 X74.93 Y206.36
G1 F3480 X80.65 Y200.63 E455.12990
G0 F12000 X81.22 Y200.63
G1 F3480 X75.49 Y206.36 E455.39861
G0 F12000 X76.06 Y206.36
G1 F3480 X81.78 Y200.63 E455.66732
G0 F12000 X82.35 Y200.63
G1 F3480 X76.62 Y206.36 E455.93603
G0 F12000 X77.18 Y206.36
G1 F3480 X82.91 Y200.63 E456.20473
G0 F12000 X83.47 Y200.63
G1 F3480 X77.75 Y206.36 E456.47344
G0 F12000 X78.31 Y206.36
G1 F3480 X84.04 Y200.63 E456.74215
G0 F12000 X84.60 Y200.63
G1 F3480 X78.88 Y206.36 E457.01083
G0 F12000 X79.44 Y206.36
G1 F3480 X85.17 Y200.63 E457.27954
G0 F12000 X85.73 Y200.63
G1 F3480 X80.00 Y206.36 E457.54824
G0 F12000 X80.57 Y206.36
G1 F3480 X86.30 Y200.63 E457.81695
G0 F12000 X86.86 Y200.63
G1 F3480 X81.13 Y206.36 E458.08564
G0 F12000 X81.70 Y206.36
G1 F3480 X87.42 Y200.63 E458.35434
G0 F12000 X87.99 Y200.63
G1 F3480 X82.26 Y206.36 E458.62305
G0 F12000 X82.83 Y206.36
G1 F3480 X88.55 Y200.63 E458.89176
G0 F12000 X89.12 Y200.63
G1 F3480 X83.39 Y206.36 E459.16046
G0 F12000 X83.95 Y206.36
G1 F3480 X89.68 Y200.63 E459.42917
G0 F12000 X90.25 Y200.63
G1 F3480 X84.52 Y206.36 E459.69788
G0 F12000 X85.08 Y206.36
G1 F3480 X90.81 Y200.63 E459.96656
G0 F12000 X91.38 Y200.63
G1 F3480 X85.65 Y206.36 E460.23527
G0 F12000 X86.21 Y206.36
G1 F3480 X91.94 Y200.63 E460.50398
G0 F12000 X92.50 Y200.63
G1 F3480 X86.78 Y206.36 E460.77268
G0 F12000 X87.34 Y206.36
G1 F3480 X93.07 Y200.63 E461.04137
G0 F12000 X93.63 Y200.63
G1 F3480 X87.91 Y206.36 E461.31007
G0 F12000 X88.47 Y206.36
G1 F3480 X94.20 Y200.63 E461.57878
G0 F12000 X94.76 Y200.63
G1 F3480 X89.03 Y206.36 E461.84749
G0 F12000 X89.60 Y206.36
G1 F3480 X95.33 Y200.63 E462.11619
G0 F12000 X95.89 Y200.63
G1 F3480 X90.16 Y206.36 E462.38490
G0 F12000 X90.73 Y206.36
G1 F3480 X96.45 Y200.63 E462.65361
G0 F12000 X97.02 Y200.63
G1 F3480 X91.29 Y206.36 E462.92229
G0 F12000 X91.86 Y206.36
G1 F3480 X97.58 Y200.63 E463.19100
G0 F12000 X98.15 Y200.63
G1 F3480 X92.42 Y206.36 E463.45971
G0 F12000 X92.98 Y206.36
G1 F3480 X98.71 Y200.63 E463.72841
G0 F12000 X99.27 Y200.63
G1 F3480 X93.55 Y206.36 E463.99710
G0 F12000 X94.11 Y206.36
G1 F3480 X99.84 Y200.63 E464.26580
G0 F12000 X100.40 Y200.63
G1 F3480 X94.68 Y206.36 E464.53451
G0 F12000 X95.24 Y206.36
G1 F3480 X100.97 Y200.63 E464.80322
G0 F12000 X101.53 Y200.63
G1 F3480 X95.81 Y206.36 E465.07193
G0 F12000 X96.37 Y206.36
G1 F3480 X102.10 Y200.63 E465.34063
G0 F12000 X102.66 Y200.63
G1 F3480 X96.93 Y206.36 E465.60934
G0 F12000 X97.50 Y206.36
G1 F3480 X103.22 Y200.63 E465.87802
G0 F12000 X103.79 Y200.63
G1 F3480 X98.06 Y206.36 E466.14673
G0 F12000 X98.63 Y206.36
G1 F3480 X104.35 Y200.63 E466.41544
G0 F12000 X104.92 Y200.63
G1 F3480 X99.19 Y206.36 E466.68414
G0 F12000 X99.75 Y206.36
G1 F3480 X105.48 Y200.63 E466.95283
G0 F12000 X106.05 Y200.63
G1 F3480 X100.32 Y206.36 E467.22154
G0 F12000 X100.88 Y206.36
G1 F3480 X106.61 Y200.63 E467.49024
G0 F12000 X107.17 Y200.63
G1 F3480 X101.45 Y206.36 E467.75895
G0 F12000 X102.01 Y206.36
G1 F3480 X107.74 Y200.63 E468.02766
G0 F12000 X108.30 Y200.63
G1 F3480 X102.58 Y206.36 E468.29636
G0 F12000 X103.14 Y206.36
G1 F3480 X108.87 Y200.63 E468.56507
G0 F12000 X109.43 Y200.63
G1 F3480 X103.70 Y206.36 E468.83378
G0 F12000 X104.27 Y206.36
G1 F3480 X110.00 Y200.63 E469.10248
G0 F12000 X110.56 Y200.63
G1 F3480 X104.83 Y206.36 E469.37119
G0 F12000 X105.40 Y206.36
G1 F3480 X111.12 Y200.63 E469.63990
G0 F12000 X111.69 Y200.63
G1 F3480 X105.96 Y206.36 E469.90858
G0 F12000 X106.53 Y206.36
G1 F3480 X112.25 Y200.63 E470.17729
G0 F12000 X112.82 Y200.63
G1 F3480 X107.09 Y206.36 E470.44600
G0 F12000 X107.65 Y206.36
G1 F3480 X113.38 Y200.63 E470.71470
G0 F12000 X113.95 Y200.63
G1 F3480 X108.22 Y206.36 E470.98341
G0 F12000 X108.78 Y206.36
G1 F3480 X114.51 Y200.63 E471.25212
G0 F12000 X115.07 Y200.63
G1 F3480 X109.35 Y206.36 E471.52082
G0 F12000 X109.91 Y206.36
G1 F3480 X115.64 Y200.63 E471.78953
G0 F12000 X116.20 Y200.63
G1 F3480 X110.48 Y206.36 E472.05824
G0 F12000 X111.04 Y206.36
G1 F3480 X116.77 Y200.63 E472.32695
G0 F12000 X117.33 Y200.63
G1 F3480 X111.60 Y206.36 E472.59565
G0 F12000 X112.17 Y206.36
G1 F3480 X117.89 Y200.63 E472.86434
G0 F12000 X118.46 Y200.63
G1 F3480 X112.73 Y206.36 E473.13304
G0 F12000 X113.30 Y206.36
G1 F3480 X119.02 Y200.63 E473.40175
G0 F12000 X119.59 Y200.63
G1 F3480 X113.86 Y206.36 E473.67046
G0 F12000 X114.43 Y206.36
G1 F3480 X120.15 Y200.63 E473.93914
G0 F12000 X120.72 Y200.63
G1 F3480 X114.99 Y206.36 E474.20785
G0 F12000 X115.55 Y206.36
G1 F3480 X121.28 Y200.63 E474.47656
G0 F12000 X121.84 Y200.63
G1 F3480 X116.12 Y206.36 E474.74526
G0 F12000 X116.68 Y206.36
G1 F3480 X122.41 Y200.63 E475.01397
G0 F12000 X122.97 Y200.63
G1 F3480 X117.25 Y206.36 E475.28268
G0 F12000 X117.81 Y206.36
G1 F3480 X123.54 Y200.63 E475.55138
G0 F12000 X124.10 Y200.63
G1 F3480 X118.38 Y206.36 E475.82007
G0 F12000 X118.94 Y206.36
G1 F3480 X124.67 Y200.63 E476.08877
G0 F12000 X125.23 Y200.63
G1 F3480 X119.50 Y206.36 E476.35748
G0 F12000 X120.07 Y206.36
G1 F3480 X125.80 Y200.63 E476.62619
G0 F12000 X126.36 Y200.63
G1 F3480 X120.63 Y206.36 E476.89487
G0 F12000 X121.20 Y206.36
G1 F3480 X126.92 Y200.63 E477.16358
G0 F12000 X127.49 Y200.63
G1 F3480 X121.76 Y206.36 E477.43229
G0 F12000 X122.33 Y206.36
G1 F3480 X128.05 Y200.63 E477.70099
G0 F12000 X128.62 Y200.63
G1 F3480 X122.89 Y206.36 E477.96970
G0 F12000 X123.45 Y206.36
G1 F3480 X129.18 Y200.63 E478.23841
G0 F12000 X129.75 Y200.63
G1 F3480 X124.02 Y206.36 E478.50711
G0 F12000 X124.58 Y206.36
G1 F3480 X130.31 Y200.63 E478.77580
G0 F12000 X130.87 Y200.63
G1 F3480 X125.15 Y206.36 E479.04451
G0 F12000 X125.71 Y206.36
G1 F3480 X131.44 Y200.63 E479.31321
G0 F12000 X132.00 Y200.63
G1 F3480 X126.28 Y206.36 E479.58192
G0 F12000 X126.84 Y206.36
G1 F3480 X132.57 Y200.63 E479.85060
G0 F12000 X133.13 Y200.63
G1 F3480 X127.40 Y206.36 E480.11931
G0 F12000 X127.97 Y206.36
G1 F3480 X133.69 Y200.63 E480.38802
G0 F12000 X134.26 Y200.63
G1 F3480 X128.53 Y206.36 E480.65672
G0 F12000 X129.10 Y206.36
G1 F3480 X134.82 Y200.63 E480.92543
G0 F12000 X135.39 Y200.63
G1 F3480 X129.66 Y206.36 E481.19414
G0 F12000 X130.22 Y206.36
G1 F3480 X135.95 Y200.63 E481.46285
G0 F12000 X136.52 Y200.63
G1 F3480 X130.79 Y206.36 E481.73153
G0 F12000 X131.35 Y206.36
G1 F3480 X137.08 Y200.64 E482.00019
G0 F12000 X137.64 Y200.64
G1 F3480 X131.92 Y206.36 E482.26885
G0 F12000 X132.48 Y206.36
G1 F3480 X138.21 Y200.64 E482.53751
G0 F12000 X138.77 Y200.64
G1 F3480 X133.05 Y206.36 E482.80617
G0 F12000 X133.61 Y206.36
G1 F3480 X139.34 Y200.64 E483.07483
G0 F12000 X139.90 Y200.64
G1 F3480 X134.18 Y206.36 E483.34349
G0 F12000 X134.74 Y206.36
G1 F3480 X140.47 Y200.64 E483.61217
G0 F12000 X141.03 Y200.64
G1 F3480 X135.30 Y206.36 E483.88083
G0 F12000 X135.87 Y206.36
G1 F3480 X141.59 Y200.64 E484.14949
G0 F12000 X142.16 Y200.64
G1 F3480 X136.43 Y206.36 E484.41815
G0 F12000 X137.00 Y206.36
G1 F3480 X142.72 Y200.64 E484.68684
G0 F12000 X143.29 Y200.64
G1 F3480 X137.56 Y206.36 E484.95550
G0 F12000 X138.12 Y206.36
G1 F3480 X143.85 Y200.64 E485.22416
G0 F12000 X144.41 Y200.64
G1 F3480 X138.69 Y206.36 E485.49282
G0 F12000 X139.25 Y206.36
G1 F3480 X144.98 Y200.64 E485.76148
G0 F12000 X145.54 Y200.64
G1 F3480 X139.82 Y206.36 E486.03014
G0 F12000 X140.38 Y206.36
G1 F3480 X146.11 Y200.64 E486.29880
G0 F12000 X146.67 Y200.64
G1 F3480 X140.95 Y206.36 E486.56748
G0 F12000 X141.51 Y206.36
G1 F3480 X147.24 Y200.64 E486.83614
G0 F12000 X147.80 Y200.64
G1 F3480 X142.07 Y206.36 E487.10480
G0 F12000 X142.64 Y206.36
G1 F3480 X148.37 Y200.64 E487.37346
G0 F12000 X148.93 Y200.64
G1 F3480 X143.20 Y206.36 E487.64215
G0 F12000 X143.77 Y206.36
G1 F3480 X149.49 Y200.64 E487.91081
G0 F12000 X150.06 Y200.64
G1 F3480 X144.33 Y206.36 E488.17947
G0 F12000 X144.90 Y206.36
G1 F3480 X150.62 Y200.64 E488.44813
G0 F12000 X151.19 Y200.64
G1 F3480 X145.46 Y206.36 E488.71679
G0 F12000 X146.03 Y206.36
G1 F3480 X151.75 Y200.64 E488.98545
G0 F12000 X152.31 Y200.64
G1 F3480 X146.59 Y206.36 E489.25411
G0 F12000 X147.15 Y206.36
G1 F3480 X152.88 Y200.64 E489.52279
G0 F12000 X153.44 Y200.64
G1 F3480 X147.72 Y206.36 E489.79145
G0 F12000 X148.28 Y206.36
G1 F3480 X154.01 Y200.64 E490.06011
G0 F12000 X154.57 Y200.64
G1 F3480 X148.85 Y206.36 E490.32877
G0 F12000 X149.41 Y206.36
G1 F3480 X155.14 Y200.64 E490.59746
G0 F12000 X155.70 Y200.64
G1 F3480 X149.97 Y206.36 E490.86616
G0 F12000 X150.54 Y206.36
G1 F3480 X156.26 Y200.64 E491.13487
G0 F12000 X156.83 Y200.64
G1 F3480 X151.10 Y206.36 E491.40355
G0 F12000 X151.67 Y206.36
G1 F3480 X157.39 Y200.64 E491.67226
G0 F12000 X157.96 Y200.64
G1 F3480 X152.23 Y206.36 E491.94097
G0 F12000 X152.79 Y206.36
G1 F3480 X158.52 Y200.64 E492.20967
G0 F12000 X159.09 Y200.64
G1 F3480 X153.36 Y206.36 E492.47838
G0 F12000 X153.92 Y206.36
G1 F3480 X159.65 Y200.64 E492.74709
G0 F12000 X160.22 Y200.64
G1 F3480 X154.49 Y206.36 E493.01580
G0 F12000 X155.05 Y206.36
G1 F3480 X160.78 Y200.64 E493.28450
G0 F12000 X161.34 Y200.64
G1 F3480 X155.62 Y206.36 E493.55321
G0 F12000 X156.18 Y206.36
G1 F3480 X161.91 Y200.64 E493.82192
G0 F12000 X162.47 Y200.64
G1 F3480 X156.75 Y206.36 E494.09062
G0 F12000 X157.31 Y206.36
G1 F3480 X163.04 Y200.64 E494.35931
G0 F12000 X163.60 Y200.64
G1 F3480 X157.87 Y206.36 E494.62801
G0 F12000 X158.44 Y206.36
G1 F3480 X164.16 Y200.64 E494.89672
G0 F12000 X164.73 Y200.64
G1 F3480 X159.00 Y206.36 E495.16543
G0 F12000 X159.57 Y206.36
G1 F3480 X165.29 Y200.64 E495.43411
G0 F12000 X165.86 Y200.64
G1 F3480 X160.13 Y206.36 E495.70282
G0 F12000 X160.69 Y206.36
G1 F3480 X166.42 Y200.64 E495.97153
G0 F12000 X166.99 Y200.64
G1 F3480 X161.26 Y206.36 E496.24023
G0 F12000 X161.82 Y206.36
G1 F3480 X167.55 Y200.64 E496.50894
G0 F12000 X168.12 Y200.64
G1 F3480 X162.39 Y206.36 E496.77765
G0 F12000 X162.95 Y206.36
G1 F3480 X168.68 Y200.64 E497.04635
G0 F12000 X169.24 Y200.64
G1 F3480 X163.52 Y206.36 E497.31504
G0 F12000 X164.08 Y206.36
G1 F3480 X169.81 Y200.64 E497.58375
G0 F12000 X170.37 Y200.64
G1 F3480 X164.65 Y206.36 E497.85245
G0 F12000 X165.21 Y206.36
G1 F3480 X170.94 Y200.64 E498.12116
G0 F12000 X171.50 Y200.64
G1 F3480 X165.77 Y206.36 E498.38984
G0 F12000 X166.34 Y206.36
G1 F3480 X172.06 Y200.64 E498.65855
G0 F12000 X172.63 Y200.64
G1 F3480 X166.90 Y206.36 E498.92726
G0 F12000 X167.47 Y206.36
G1 F3480 X173.19 Y200.64 E499.19596
G0 F12000 X173.76 Y200.64
G1 F3480 X168.03 Y206.36 E499.46467
G0 F12000 X168.59 Y206.36
G1 F3480 X174.32 Y200.64 E499.73338
G0 F12000 X174.89 Y200.64
G1 F3480 X169.16 Y206.36 E500.00209
G0 F12000 X169.72 Y206.36
G1 F3480 X175.45 Y200.64 E500.27077
G0 F12000 X176.01 Y200.64
G1 F3480 X170.29 Y206.36 E500.53948
G0 F12000 X170.85 Y206.36
G1 F3480 X176.58 Y200.64 E500.80818
G0 F12000 X177.14 Y200.64
G1 F3480 X171.42 Y206.36 E501.07689
G0 F12000 X171.98 Y206.36
G1 F3480 X177.71 Y200.64 E501.34557
G0 F12000 X178.27 Y200.64
G1 F3480 X172.54 Y206.36 E501.61428
G0 F12000 X173.11 Y206.36
G1 F3480 X178.84 Y200.64 E501.88299
G0 F12000 X179.40 Y200.64
G1 F3480 X173.67 Y206.36 E502.15169
G0 F12000 X174.24 Y206.36
G1 F3480 X179.97 Y200.64 E502.42040
G0 F12000 X180.53 Y200.64
G1 F3480 X174.80 Y206.36 E502.68911
G0 F12000 X175.37 Y206.36
G1 F3480 X181.09 Y200.64 E502.95782
G0 F12000 X181.66 Y200.64
G1 F3480 X175.93 Y206.36 E503.22652
G0 F12000 X176.50 Y206.36
G1 F3480 X182.22 Y200.64 E503.49523
G0 F12000 X182.79 Y200.64
G1 F3480 X177.06 Y206.36 E503.76394
G0 F12000 X177.62 Y206.36
G1 F3480 X183.35 Y200.64 E504.03264
G0 F12000 X183.91 Y200.64
G1 F3480 X178.19 Y206.36 E504.30133
G0 F12000 X178.75 Y206.36
G1 F3480 X184.48 Y200.64 E504.57004
G0 F12000 X185.04 Y200.64
G1 F3480 X179.32 Y206.36 E504.83874
G0 F12000 X179.88 Y206.36
G1 F3480 X185.61 Y200.64 E505.10745
G0 F12000 X186.17 Y200.64
G1 F3480 X180.44 Y206.36 E505.37616
G0 F12000 X181.01 Y206.36
G1 F3480 X186.74 Y200.64 E505.64486
G0 F12000 X187.30 Y200.64
G1 F3480 X181.57 Y206.36 E505.91357
G0 F12000 X182.14 Y206.36
G1 F3480 X187.86 Y200.64 E506.18228
G0 F12000 X188.43 Y200.64
G1 F3480 X182.70 Y206.36 E506.45098
G0 F12000 X183.27 Y206.36
G1 F3480 X188.99 Y200.64 E506.71969
G0 F12000 X189.56 Y200.64
G1 F3480 X183.83 Y206.36 E506.98840
G0 F12000 X184.40 Y206.36
G1 F3480 X190.12 Y200.64 E507.25708
G0 F12000 X190.69 Y200.64
G1 F3480 X184.96 Y206.36 E507.52579
G0 F12000 X185.52 Y206.36
G1 F3480 X191.25 Y200.64 E507.79450
G0 F12000 X191.81 Y200.64
G1 F3480 X186.09 Y206.36 E508.06320
G0 F12000 X186.65 Y206.36
G1 F3480 X192.38 Y200.64 E508.33191
G0 F12000 X192.94 Y200.64
G1 F3480 X187.22 Y206.36 E508.60062
G0 F12000 X187.78 Y206.36
G1 F3480 X193.51 Y200.64 E508.86932
G0 F12000 X194.07 Y200.64
G1 F3480 X188.34 Y206.36 E509.13803
G0 F12000 X188.91 Y206.36
G1 F3480 X194.64 Y200.64 E509.40674
G0 F12000 X195.20 Y200.64
G1 F3480 X189.47 Y206.36 E509.67545
G0 F12000 X190.04 Y206.36
G1 F3480 X195.76 Y200.64 E509.94415
G0 F12000 X196.33 Y200.64
G1 F3480 X190.60 Y206.36 E510.21284
G0 F12000 X191.17 Y206.36
G1 F3480 X196.89 Y200.64 E510.48154
G0 F12000 X197.46 Y200.64
G1 F3480 X191.73 Y206.36 E510.75025
G0 F12000 X192.29 Y206.36
G1 F3480 X198.02 Y200.64 E511.01896
G0 F12000 X198.59 Y200.64
G1 F3480 X192.86 Y206.36 E511.28764
G0 F12000 X193.42 Y206.36
G1 F3480 X199.15 Y200.64 E511.55635
G0 F12000 X199.71 Y200.64
G1 F3480 X193.99 Y206.36 E511.82506
G0 F12000 X194.55 Y206.36
G1 F3480 X200.28 Y200.64 E512.09376
G0 F12000 X200.84 Y200.64
G1 F3480 X195.12 Y206.36 E512.36247
G0 F12000 X195.68 Y206.36
G1 F3480 X201.41 Y200.64 E512.63118
G0 F12000 X201.97 Y200.64
G1 F3480 X196.24 Y206.36 E512.89988
G0 F12000 X196.81 Y206.36
G1 F3480 X202.53 Y200.64 E513.16857
G0 F12000 X203.10 Y200.64
G1 F3480 X197.37 Y206.36 E513.43727
G0 F12000 X197.94 Y206.36
G1 F3480 X203.66 Y200.64 E513.70598
G0 F12000 X204.23 Y200.64
G1 F3480 X198.50 Y206.36 E513.97469
G0 F12000 X199.07 Y206.36
G1 F3480 X204.79 Y200.64 E514.24337
G0 F12000 X205.36 Y200.64
G1 F3480 X199.63 Y206.36 E514.51208
G0 F12000 X200.19 Y206.36
G1 F3480 X205.92 Y200.64 E514.78079
G0 F12000 X206.49 Y200.63
G1 F3480 X200.76 Y206.36 E515.04992
G0 F12000 X201.32 Y206.36
G1 F3480 X207.15 Y200.54 E515.32308
G0 F12000 X207.79 Y200.46
G1 F3480 X201.89 Y206.36 E515.60028
G0 F12000 X202.45 Y206.36
G1 F3480 X208.44 Y200.37 E515.88149
G0 F12000 X209.09 Y200.28
G1 F3480 X203.02 Y206.36 E516.16674
G0 F12000 X203.58 Y206.36
G1 F3480 X209.75 Y200.20 E516.45599
G0 F12000 X210.40 Y200.11
G1 F3480 X204.14 Y206.36 E516.74929
G0 F12000 X204.71 Y206.36
G1 F3480 X211.04 Y200.03 E517.04659
G0 F12000 X211.69 Y199.94
G1 F3480 X205.27 Y206.36 E517.34793
G0 F12000 X205.84 Y206.36
G1 F3480 X212.60 Y199.60 E517.66536
G0 F12000 X213.57 Y199.20
G1 F3480 X206.40 Y206.36 E518.00154
G0 F12000 X206.97 Y206.36
G1 F3480 X214.53 Y198.80 E518.35651
G0 F12000 X215.50 Y198.40
G1 F3480 X207.53 Y206.36 E518.73022
G0 F12000 X208.09 Y206.36
G1 F3480 X216.46 Y198.00 E519.12266
G0 F12000 X218.18 Y196.84
G1 F3480 X208.66 Y206.36 E519.56937
G0 F12000 X209.22 Y206.36
G1 F3480 X220.60 Y194.98 E520.10332
G0 F12000 X221.82 Y193.76
G1 F3480 X236.12 Y179.47 E520.77405
G0 F12000 X235.35 Y180.80
G1 F3480 X209.79 Y206.36 E521.97350
G0 F12000 X210.35 Y206.36
G1 F3480 X234.58 Y182.13 E523.11031
G0 F12000 X233.81 Y183.47
G1 F3480 X210.91 Y206.36 E524.18448
G0 F12000 X211.48 Y206.36
G1 F3480 X233.21 Y184.64 E525.20380
G0 F12000 X233.21 Y185.20
G1 F3480 X212.04 Y206.36 E526.19666
G0 F12000 X212.61 Y206.36
G1 F3480 X233.21 Y185.77 E527.16306
G0 F12000 X233.21 Y186.33
G1 F3480 X213.17 Y206.36 E528.10297
G0 F12000 X213.74 Y206.36
G1 F3480 X233.21 Y186.90 E529.01640
G0 F12000 X233.21 Y187.46
G1 F3480 X214.30 Y206.36 E529.90336
G0 F12000 X214.87 Y206.36
G1 F3480 X233.21 Y188.02 E530.76386
G0 F12000 X233.21 Y188.59
G1 F3480 X215.43 Y206.36 E531.59788
G0 F12000 X215.99 Y206.36
G1 F3480 X233.21 Y189.15 E532.40540
G0 F12000 X233.21 Y189.72
G1 F3480 X216.56 Y206.36 E533.18647
G0 F12000 X217.12 Y206.36
G1 F3480 X233.21 Y190.28 E533.94105
G0 F12000 X233.21 Y190.84
G1 F3480 X217.69 Y206.36 E534.66914
G0 F12000 X218.25 Y206.36
G1 F3480 X233.21 Y191.41 E535.37078
G0 F12000 X233.21 Y191.97
G1 F3480 X218.81 Y206.36 E536.04595
G0 F12000 X219.38 Y206.36
G1 F3480 X233.21 Y192.54 E536.69463
G0 F12000 X233.21 Y193.10
G1 F3480 X219.94 Y206.36 E537.31683
G0 F12000 X220.51 Y206.36
G1 F3480 X233.21 Y193.67 E537.91256
G0 F12000 X233.21 Y194.23
G1 F3480 X221.07 Y206.36 E538.48183
G0 F12000 X221.64 Y206.36
G1 F3480 X233.21 Y194.79 E539.02462
G0 F12000 X233.21 Y195.36
G1 F3480 X222.20 Y206.36 E539.54092
G0 F12000 X222.76 Y206.36
G1 F3480 X233.21 Y195.92 E540.03076
G0 F12000 X233.21 Y196.49
G1 F3480 X223.33 Y206.36 E540.49411
G0 F12000 X223.89 Y206.36
G1 F3480 X233.21 Y197.05 E540.93098
G0 F12000 X233.21 Y197.62
G1 F3480 X224.46 Y206.36 E541.34138
G0 F12000 X225.02 Y206.36
G1 F3480 X233.21 Y198.18 E541.72532
G0 F12000 X233.21 Y198.75
G1 F3480 X225.59 Y206.36 E542.08278
G0 F12000 X226.15 Y206.36
G1 F3480 X233.21 Y199.31 E542.41375
G0 F12000 X233.21 Y199.87
G1 F3480 X226.72 Y206.36 E542.71825
G0 F12000 X227.28 Y206.36
G1 F3480 X233.21 Y200.44 E542.99630
G0 F12000 X233.21 Y201.00
G1 F3480 X227.84 Y206.36 E543.24785
G0 F12000 X228.41 Y206.36
G1 F3480 X233.21 Y201.57 E543.47293
G0 F12000 X233.21 Y202.13
G1 F3480 X228.97 Y206.36 E543.67154
G0 F12000 X229.54 Y206.36
G1 F3480 X233.21 Y202.69 E543.84368
G0 F12000 X233.21 Y203.26
G1 F3480 X230.10 Y206.36 E543.98932
G0 F12000 X230.66 Y206.36
G1 F3480 X233.21 Y203.82 E544.10850
G0 F12000 X233.21 Y204.39
G1 F3480 X231.23 Y206.36 E544.20121
G0 F12000 X231.79 Y206.36
G1 F3480 X233.21 Y204.95 E544.26743
G0 F12000 X233.21 Y205.52
G1 F3480 X232.36 Y206.36 E544.30718
G0 F12000 X232.92 Y206.36
G1 F3480 X233.21 Y206.08 E544.32045
G0 F12000 X223.69 Y191.34
G1 F3480 X236.89 Y178.13 E544.94009
G0 F12000 X237.66 Y176.79
G1 F3480 X224.85 Y189.61 E545.54141
G0 F12000 X225.25 Y188.65
G1 F3480 X238.43 Y175.46 E546.16009
G0 F12000 X239.20 Y174.12
G1 F3480 X225.65 Y187.68 E546.79618
G0 F12000 X226.05 Y186.72
G1 F3480 X239.38 Y173.38 E547.42175
G0 F12000 X239.38 Y172.82
G1 F3480 X226.45 Y185.75 E548.02856
G0 F12000 X226.79 Y184.85
G1 F3480 X239.38 Y172.26 E548.61944
G0 F12000 X239.38 Y171.69
G1 F3480 X226.87 Y184.20 E549.20631
G0 F12000 X226.96 Y183.55
G1 F3480 X239.38 Y171.13 E549.78918
G0 F12000 X239.38 Y170.56
G1 F3480 X227.04 Y182.90 E550.36803
G0 F12000 X227.13 Y182.25
G1 F3480 X239.38 Y170.00 E550.94288
G0 F12000 X239.38 Y169.44
G1 F3480 X227.21 Y181.60 E551.51370
G0 F12000 X227.30 Y180.95
G1 F3480 X239.38 Y168.87 E552.08054
G0 F12000 X239.38 Y168.31
G1 F3480 X227.38 Y180.30 E552.64340
G0 F12000 X227.47 Y179.65
G1 F3480 X239.38 Y167.74 E553.20224
G0 F12000 X239.38 Y167.18
G1 F3480 X227.47 Y179.09 E553.76105
G0 F12000 X227.47 Y178.52
G1 F3480 X239.38 Y166.61 E554.31983
G0 F12000 X239.38 Y166.05
G1 F3480 X227.47 Y177.96 E554.87860
G0 F12000 X227.47 Y177.39
G1 F3480 X239.38 Y165.49 E555.43736
G0 F12000 X239.38 Y164.92
G1 F3480 X227.47 Y176.83 E555.99612
G0 F12000 X227.47 Y176.26
G1 F3480 X239.38 Y164.36 E556.55484
G0 F12000 X239.38 Y163.79
G1 F3480 X227.47 Y175.70 E557.11357
G0 F12000 X227.47 Y175.14
G1 F3480 X239.38 Y163.23 E557.67227
G0 F12000 X239.38 Y162.66
G1 F3480 X227.47 Y174.57 E558.23094
G0 F12000 X227.47 Y174.01
G1 F3480 X239.38 Y162.10 E558.78963
G0 F12000 X239.38 Y161.53
G1 F3480 X227.47 Y173.44 E559.34830
G0 F12000 X227.47 Y172.88
G1 F3480 X239.38 Y160.97 E559.90696
G0 F12000 X239.38 Y160.41
G1 F3480 X227.47 Y172.31 E560.46563
G0 F12000 X227.47 Y171.75
G1 F3480 X239.38 Y159.84 E561.02428
G0 F12000 X239.38 Y159.28
G1 F3480 X227.47 Y171.18 E561.58290
G0 F12000 X227.47 Y170.62
G1 F3480 X239.38 Y158.71 E562.14148
G0 F12000 X239.38 Y158.15
G1 F3480 X227.47 Y170.06 E562.70005
G0 F12000 X227.47 Y169.49
G1 F3480 X239.38 Y157.59 E563.25865
G0 F12000 X239.38 Y157.02
G1 F3480 X227.47 Y168.93 E563.81722
G0 F12000 X227.47 Y168.36
G1 F3480 X239.38 Y156.46 E564.37580
G0 F12000 X239.38 Y155.89
G1 F3480 X227.47 Y167.80 E564.93433
G0 F12000 X227.47 Y167.23
G1 F3480 X239.38 Y155.33 E565.49285
G0 F12000 X239.38 Y154.76
G1 F3480 X227.47 Y166.67 E566.05138
G0 F12000 X227.48 Y166.10
G1 F3480 X239.38 Y154.20 E566.60986
G0 F12000 X239.38 Y153.63
G1 F3480 X227.48 Y165.54 E567.16837
G0 F12000 X227.48 Y164.97
G1 F3480 X239.38 Y153.07 E567.72687
G0 F12000 X239.38 Y152.51
G1 F3480 X227.48 Y164.41 E568.28535
G0 F12000 X227.48 Y163.84
G1 F3480 X239.38 Y151.94 E568.84381
G0 F12000 X239.38 Y151.38
G1 F3480 X227.48 Y163.28 E569.40224
G0 F12000 X227.48 Y162.72
G1 F3480 X239.38 Y150.81 E569.96068
G0 F12000 X239.38 Y150.25
G1 F3480 X227.48 Y162.15 E570.51911
G0 F12000 X227.48 Y161.59
G1 F3480 X239.38 Y149.69 E571.07750
G0 F12000 X239.38 Y149.12
G1 F3480 X227.48 Y161.02 E571.63591
G0 F12000 X227.48 Y160.46
G1 F3480 X239.38 Y148.56 E572.19427
G0 F12000 X239.38 Y147.99
G1 F3480 X227.48 Y159.89 E572.75261
G0 F12000 X227.48 Y159.33
G1 F3480 X239.38 Y147.43 E573.31098
G0 F12000 X239.38 Y146.86
G1 F3480 X230.87 Y155.37 E573.71007
G0 F12000 X230.53 Y155.71
G1 F3480 X227.48 Y158.76 E573.85320
G0 F12000 X227.48 Y158.20
G1 F3480 X228.22 Y157.46 E573.88797
G0 F12000 X227.56 Y157.56
G1 F3480 X227.48 Y157.64 E573.89172
G0 F12000 X231.11 Y154.57
G1 F3480 X239.38 Y146.30 E574.27956
G0 F12000 X239.38 Y145.74
G1 F3480 X231.35 Y153.76 E574.65618
G0 F12000 X231.59 Y152.96
G1 F3480 X239.38 Y145.17 E575.02156
G0 F12000 X239.38 Y144.61
G1 F3480 X231.67 Y152.31 E575.38317
G0 F12000 X231.54 Y151.88
G1 F3480 X239.38 Y144.04 E575.75078
G0 F12000 X239.38 Y143.48
G1 F3480 X231.42 Y151.44 E576.12438
G0 F12000 X231.29 Y151.01
G1 F3480 X239.38 Y142.91 E576.50403
G0 F12000 X239.38 Y142.35
G1 F3480 X231.16 Y150.57 E576.88966
G0 F12000 X231.03 Y150.13
G1 F3480 X239.38 Y141.79 E577.28134
G0 F12000 X239.38 Y141.22
G1 F3480 X230.90 Y149.71 E577.67942
G0 F12000 X230.65 Y149.39
G1 F3480 X239.38 Y140.66 E578.08903
G0 F12000 X239.38 Y140.09
G1 F3480 X230.35 Y149.12 E578.51281
G0 F12000 X230.04 Y148.86
G1 F3480 X239.38 Y139.53 E578.95073
G0 F12000 X239.38 Y138.96
G1 F3480 X229.74 Y148.60 E579.40284
G0 F12000 X229.44 Y148.34
G1 F3480 X239.38 Y138.40 E579.86910
G0 F12000 X239.38 Y137.84
G1 F3480 X229.14 Y148.08 E580.34956
G0 F12000 X228.83 Y147.82
G1 F3480 X239.38 Y137.27 E580.84465
G0 F12000 X239.38 Y136.71
G1 F3480 X228.49 Y147.60 E581.35556
G0 F12000 X228.01 Y147.51
G1 F3480 X239.38 Y136.14 E581.88884
G0 F12000 X239.38 Y135.58
G1 F3480 X227.52 Y147.44 E582.44526
G0 F12000 X227.48 Y146.91
G1 F3480 X239.38 Y135.01 E583.00362
G0 F12000 X239.38 Y134.45
G1 F3480 X227.48 Y146.35 E583.56198
G0 F12000 X227.48 Y145.79
G1 F3480 X239.38 Y133.89 E584.12035
G0 F12000 X239.38 Y133.32
G1 F3480 X227.48 Y145.22 E584.67869
G0 F12000 X227.48 Y144.66
G1 F3480 X239.38 Y132.76 E585.23705
G0 F12000 X239.38 Y132.19
G1 F3480 X227.48 Y144.09 E585.79542
G0 F12000 X227.48 Y143.53
G1 F3480 X239.38 Y131.63 E586.35376
G0 F12000 X239.34 Y131.11
G1 F3480 X227.48 Y142.97 E586.91015
G0 F12000 X227.48 Y142.40
G1 F3480 X239.13 Y130.75 E587.45688
G0 F12000 X238.93 Y130.39
G1 F3480 X227.48 Y141.84 E587.99392
G0 F12000 X227.48 Y141.27
G1 F3480 X238.72 Y130.03 E588.52124
G0 F12000 X238.51 Y129.68
G1 F3480 X227.48 Y140.71 E589.03890
G0 F12000 X227.48 Y140.14
G1 F3480 X238.31 Y129.32 E589.54687
G0 F12000 X238.10 Y128.96
G1 F3480 X227.48 Y139.58 E590.04516
G0 F12000 X227.48 Y139.01
G1 F3480 X237.89 Y128.60 E590.53371
G0 F12000 X237.69 Y128.25
G1 F3480 X227.48 Y138.45 E591.01256
G0 F12000 X227.48 Y137.89
G1 F3480 X237.48 Y127.89 E591.48173
G0 F12000 X237.27 Y127.53
G1 F3480 X227.48 Y137.32 E591.94122
G0 F12000 X227.48 Y136.76
G1 F3480 X237.07 Y127.17 E592.39103
G0 F12000 X236.86 Y126.81
G1 F3480 X227.48 Y136.19 E592.83116
G0 F12000 X227.48 Y135.63
G1 F3480 X236.65 Y126.46 E593.26160
G0 F12000 X236.45 Y126.10
G1 F3480 X227.48 Y135.06 E593.68232
G0 F12000 X227.48 Y134.50
G1 F3480 X236.24 Y125.74 E594.09338
G0 F12000 X236.03 Y125.38
G1 F3480 X227.48 Y133.94 E594.49475
G0 F12000 X227.48 Y133.37
G1 F3480 X235.83 Y125.03 E594.88641
G0 F12000 X235.62 Y124.67
G1 F3480 X227.48 Y132.81 E595.26838
G0 F12000 X227.48 Y132.24
G1 F3480 X235.41 Y124.31 E595.64064
G0 F12000 X235.21 Y123.95
G1 F3480 X227.48 Y131.68 E596.00323
G0 F12000 X227.48 Y131.12
G1 F3480 X235.00 Y123.59 E596.35611
G0 F12000 X234.79 Y123.24
G1 F3480 X227.48 Y130.55 E596.69933
G0 F12000 X227.48 Y129.99
G1 F3480 X234.59 Y122.88 E597.03286
G0 F12000 X234.38 Y122.52
G1 F3480 X227.48 Y129.42 E597.35669
G0 F12000 X227.48 Y128.86
G1 F3480 X234.17 Y122.16 E597.67082
G0 F12000 X233.97 Y121.81
G1 F3480 X227.48 Y128.29 E597.97528
G0 F12000 X227.48 Y127.73
G1 F3480 X233.76 Y121.45 E598.27003
G0 F12000 X233.55 Y121.09
G1 F3480 X227.48 Y127.17 E598.55508
G0 F12000 X227.48 Y126.60
G1 F3480 X233.35 Y120.73 E598.83045
G0 F12000 X233.21 Y120.31
G1 F3480 X227.48 Y126.04 E599.09911
G0 F12000 X227.48 Y125.47
G1 F3480 X233.21 Y119.75 E599.36777
G0 F12000 X233.21 Y119.18
G1 F3480 X227.42 Y124.97 E599.63925
G0 F12000 X227.35 Y124.47
G1 F3480 X233.21 Y118.62 E599.91380
G0 F12000 X233.21 Y118.05
G1 F3480 X227.29 Y123.97 E600.19142
G0 F12000 X227.22 Y123.47
G1 F3480 X233.21 Y117.49 E600.47211
G0 F12000 X233.21 Y116.92
G1 F3480 X227.16 Y122.97 E600.75588
G0 F12000 X227.09 Y122.47
G1 F3480 X233.21 Y116.36 E601.04275
G0 F12000 X233.21 Y115.80
G1 F3480 X227.03 Y121.98 E601.33269
G0 F12000 X226.96 Y121.48
G1 F3480 X233.21 Y115.23 E601.62572
G0 F12000 X233.21 Y114.67
G1 F3480 X226.89 Y120.98 E601.92183
G0 F12000 X226.83 Y120.48
G1 F3480 X233.21 Y114.10 E602.22103
G0 F12000 X233.21 Y113.54
G1 F3480 X226.75 Y119.99 E602.52373
G0 F12000 X226.59 Y119.59
G1 F3480 X233.21 Y112.97 E602.83420
G0 F12000 X233.21 Y112.41
G1 F3480 X226.42 Y119.19 E603.15245
G0 F12000 X226.26 Y118.80
G1 F3480 X233.21 Y111.85 E603.47845
G0 F12000 X233.21 Y111.28
G1 F3480 X226.09 Y118.40 E603.81221
G0 F12000 X225.93 Y118.00
G1 F3480 X233.21 Y110.72 E604.15373
G0 F12000 X233.21 Y110.15
G1 F3480 X225.76 Y117.60 E604.50302
G0 F12000 X225.60 Y117.20
G1 F3480 X233.21 Y109.59 E604.86003
G0 F12000 X233.21 Y109.03
G1 F3480 X225.43 Y116.80 E605.22483
G0 F12000 X225.26 Y116.40
G1 F3480 X233.21 Y108.46 E605.59737
G0 F12000 X233.21 Y107.90
G1 F3480 X225.10 Y116.00 E605.97768
G0 F12000 X224.93 Y115.60
G1 F3480 X233.21 Y107.33 E606.36575
G0 F12000 X233.21 Y106.77
G1 F3480 X224.77 Y115.20 E606.76160
G0 F12000 X224.58 Y114.83
G1 F3480 X233.21 Y106.20 E607.16628
G0 F12000 X233.21 Y105.64
G1 F3480 X224.34 Y114.51 E607.58244
G0 F12000 X224.09 Y114.19
G1 F3480 X233.21 Y105.08 E608.01003
G0 F12000 X233.21 Y104.51
G1 F3480 X223.84 Y113.87 E608.44920
G0 F12000 X223.60 Y113.55
G1 F3480 X233.21 Y103.95 E608.89981
G0 F12000 X233.21 Y103.38
G1 F3480 X223.35 Y113.23 E609.36195
G0 F12000 X223.11 Y112.91
G1 F3480 X233.21 Y102.82 E609.83555
G0 F12000 X233.21 Y102.25
G1 F3480 X222.87 Y112.59 E610.32069
G0 F12000 X222.62 Y112.27
G1 F3480 X233.21 Y101.69 E610.81729
G0 F12000 X233.21 Y101.13
G1 F3480 X222.38 Y111.95 E611.32536
G0 F12000 X222.13 Y111.64
G1 F3480 X233.21 Y100.56 E611.84494
G0 F12000 X233.21 Y100.00
G1 F3480 X221.89 Y111.32 E612.37602
G0 F12000 X221.64 Y111.00
G1 F3480 X233.21 Y99.43 E612.91860
G0 F12000 X233.21 Y98.87
G1 F3480 X221.40 Y110.68 E613.47264
G0 F12000 X221.11 Y110.40
G1 F3480 X232.87 Y98.64 E614.02470
G0 F12000 X232.31 Y98.64
G1 F3480 X220.79 Y110.16 E614.56525
G0 F12000 X220.47 Y109.91
G1 F3480 X231.74 Y98.64 E615.09432
G0 F12000 X231.18 Y98.64
G1 F3480 X220.15 Y109.67 E615.61191
G0 F12000 X219.83 Y109.42
G1 F3480 X230.62 Y98.64 E616.11798
G0 F12000 X230.05 Y98.64
G1 F3480 X219.51 Y109.18 E616.61258
G0 F12000 X219.19 Y108.93
G1 F3480 X229.49 Y98.64 E617.09566
G0 F12000 X228.92 Y98.64
G1 F3480 X218.87 Y108.69 E617.56725
G0 F12000 X218.55 Y108.44
G1 F3480 X228.36 Y98.64 E618.02738
G0 F12000 X227.79 Y98.64
G1 F3480 X218.23 Y108.20 E618.47600
G0 F12000 X217.91 Y107.95
G1 F3480 X227.23 Y98.64 E618.91310
G0 F12000 X226.66 Y98.64
G1 F3480 X217.59 Y107.71 E619.33876
G0 F12000 X217.27 Y107.46
G1 F3480 X226.10 Y98.64 E619.75287
G0 F12000 X225.54 Y98.64
G1 F3480 X216.96 Y107.22 E620.15551
G0 F12000 X216.57 Y107.04
G1 F3480 X224.97 Y98.64 E620.54991
G0 F12000 X224.41 Y98.64
G1 F3480 X216.17 Y106.88 E620.93657
G0 F12000 X215.77 Y106.71
G1 F3480 X223.84 Y98.64 E621.31547
G0 F12000 X223.28 Y98.64
G1 F3480 X215.37 Y106.55 E621.68660
G0 F12000 X214.97 Y106.38
G1 F3480 X222.72 Y98.64 E622.04997
G0 F12000 X222.15 Y98.64
G1 F3480 X214.57 Y106.22 E622.40557
G0 F12000 X214.17 Y106.05
G1 F3480 X221.59 Y98.64 E622.75338
G0 F12000 X221.02 Y98.64
G1 F3480 X213.77 Y105.89 E623.09341
G0 F12000 X213.38 Y105.72
G1 F3480 X220.46 Y98.64 E623.42569
G0 F12000 X219.89 Y98.64
G1 F3480 X212.98 Y105.55 E623.75018
G0 F12000 X212.58 Y105.39
G1 F3480 X219.33 Y98.64 E624.06691
G0 F12000 X218.76 Y98.64
G1 F3480 X212.18 Y105.22 E624.37588
G0 F12000 X211.77 Y105.07
G1 F3480 X218.20 Y98.64 E624.67752
G0 F12000 X217.64 Y98.64
G1 F3480 X211.27 Y105.00 E624.97612
G0 F12000 X210.77 Y104.94
G1 F3480 X217.07 Y98.64 E625.27161
G0 F12000 X216.51 Y98.64
G1 F3480 X210.28 Y104.87 E625.56404
G0 F12000 X209.78 Y104.81
G1 F3480 X215.94 Y98.64 E625.85334
G0 F12000 X215.38 Y98.64
G1 F3480 X209.28 Y104.74 E626.13960
G0 F12000 X208.78 Y104.67
G1 F3480 X214.81 Y98.64 E626.42278
G0 F12000 X214.25 Y98.64
G1 F3480 X208.28 Y104.61 E626.70284
G0 F12000 X207.78 Y104.54
G1 F3480 X213.69 Y98.64 E626.97983
G0 F12000 X213.12 Y98.64
G1 F3480 X207.28 Y104.48 E627.25374
G0 F12000 X206.78 Y104.41
G1 F3480 X212.56 Y98.64 E627.52461
G0 F12000 X211.99 Y98.64
G1 F3480 X206.26 Y104.37 E627.79365
G0 F12000 X205.69 Y104.37
G1 F3480 X211.43 Y98.64 E628.06268
G0 F12000 X210.86 Y98.64
G1 F3480 X205.13 Y104.37 E628.33169
G0 F12000 X204.56 Y104.37
G1 F3480 X210.30 Y98.64 E628.60073
G0 F12000 X209.73 Y98.64
G1 F3480 X204.00 Y104.37 E628.86974
G0 F12000 X203.44 Y104.37
G1 F3480 X209.17 Y98.64 E629.13875
G0 F12000 X208.61 Y98.64
G1 F3480 X202.87 Y104.37 E629.40776
G0 F12000 X202.31 Y104.37
G1 F3480 X208.04 Y98.64 E629.67680
G0 F12000 X207.48 Y98.64
G1 F3480 X201.74 Y104.37 E629.94581
G0 F12000 X201.18 Y104.37
G1 F3480 X206.91 Y98.64 E630.21482
G0 F12000 X206.35 Y98.64
G1 F3480 X200.62 Y104.37 E630.48384
G0 F12000 X200.05 Y104.37
G1 F3480 X205.78 Y98.64 E630.75287
G0 F12000 X205.22 Y98.64
G1 F3480 X199.49 Y104.37 E631.02186
G0 F12000 X198.92 Y104.37
G1 F3480 X204.66 Y98.64 E631.29083
G0 F12000 X204.09 Y98.64
G1 F3480 X198.36 Y104.37 E631.55979
G0 F12000 X197.79 Y104.37
G1 F3480 X203.53 Y98.64 E631.82878
G0 F12000 X202.96 Y98.64
G1 F3480 X197.23 Y104.37 E632.09770
G0 F12000 X196.67 Y104.37
G1 F3480 X202.40 Y98.64 E632.36664
G0 F12000 X201.83 Y98.64
G1 F3480 X196.10 Y104.37 E632.63558
G0 F12000 X195.54 Y104.37
G1 F3480 X201.27 Y98.64 E632.90452
G0 F12000 X200.71 Y98.64
G1 F3480 X194.97 Y104.37 E633.17344
G0 F12000 X194.41 Y104.37
G1 F3480 X200.14 Y98.64 E633.44238
G0 F12000 X199.58 Y98.64
G1 F3480 X193.84 Y104.37 E633.71128
G0 F12000 X193.28 Y104.37
G1 F3480 X199.01 Y98.64 E633.98017
G0 F12000 X198.45 Y98.64
G1 F3480 X192.72 Y104.37 E634.24907
G0 F12000 X192.15 Y104.37
G1 F3480 X197.88 Y98.64 E634.51796
G0 F12000 X197.32 Y98.64
G1 F3480 X191.59 Y104.37 E634.78686
G0 F12000 X191.02 Y104.37
G1 F3480 X196.75 Y98.64 E635.05575
G0 F12000 X196.19 Y98.64
G1 F3480 X190.46 Y104.37 E635.32467
G0 F12000 X189.90 Y104.37
G1 F3480 X195.63 Y98.64 E635.59356
G0 F12000 X195.06 Y98.64
G1 F3480 X189.33 Y104.37 E635.86246
G0 F12000 X188.77 Y104.37
G1 F3480 X194.50 Y98.64 E636.13133
G0 F12000 X193.93 Y98.64
G1 F3480 X188.20 Y104.37 E636.40015
G0 F12000 X187.64 Y104.37
G1 F3480 X193.37 Y98.64 E636.66896
G0 F12000 X192.80 Y98.64
G1 F3480 X187.07 Y104.37 E636.93778
G0 F12000 X186.51 Y104.37
G1 F3480 X192.24 Y98.64 E637.20660
G0 F12000 X191.68 Y98.64
G1 F3480 X185.95 Y104.37 E637.47543
G0 F12000 X185.38 Y104.37
G1 F3480 X191.11 Y98.64 E637.74423
G0 F12000 X190.55 Y98.64
G1 F3480 X184.82 Y104.37 E638.01305
G0 F12000 X184.25 Y104.37
G1 F3480 X189.98 Y98.64 E638.28188
G0 F12000 X189.42 Y98.64
G1 F3480 X183.69 Y104.37 E638.55070
G0 F12000 X183.12 Y104.37
G1 F3480 X188.85 Y98.64 E638.81950
G0 F12000 X188.29 Y98.64
G1 F3480 X182.56 Y104.37 E639.08830
G0 F12000 X182.00 Y104.37
G1 F3480 X187.72 Y98.64 E639.35710
G0 F12000 X187.16 Y98.64
G1 F3480 X181.43 Y104.37 E639.62591
G0 F12000 X180.87 Y104.37
G1 F3480 X186.60 Y98.64 E639.89468
G0 F12000 X186.03 Y98.64
G1 F3480 X180.30 Y104.37 E640.16348
G0 F12000 X179.74 Y104.37
G1 F3480 X185.47 Y98.64 E640.43226
G0 F12000 X184.90 Y98.64
G1 F3480 X179.18 Y104.37 E640.70106
G0 F12000 X178.61 Y104.37
G1 F3480 X184.34 Y98.64 E640.96984
G0 F12000 X183.78 Y98.64
G1 F3480 X178.05 Y104.37 E641.23862
G0 F12000 X177.48 Y104.37
G1 F3480 X183.21 Y98.64 E641.50739
G0 F12000 X182.65 Y98.64
G1 F3480 X176.92 Y104.37 E641.77615
G0 F12000 X176.35 Y104.37
G1 F3480 X182.08 Y98.64 E642.04490
G0 F12000 X181.52 Y98.64
G1 F3480 X175.79 Y104.37 E642.31363
G0 F12000 X175.23 Y104.37
G1 F3480 X180.95 Y98.64 E642.58236
G0 F12000 X180.39 Y98.64
G1 F3480 X174.66 Y104.37 E642.85112
G0 F12000 X174.10 Y104.37
G1 F3480 X179.82 Y98.64 E643.11987
G0 F12000 X179.26 Y98.64
G1 F3480 X173.53 Y104.37 E643.38860
G0 F12000 X172.97 Y104.37
G1 F3480 X178.70 Y98.64 E643.65736
G0 F12000 X178.13 Y98.64
G1 F3480 X172.40 Y104.37 E643.92611
G0 F12000 X171.84 Y104.37
G1 F3480 X177.57 Y98.64 E644.19484
G0 F12000 X177.00 Y98.64
G1 F3480 X171.28 Y104.37 E644.46350
G0 F12000 X170.71 Y104.37
G1 F3480 X176.44 Y98.64 E644.73216
G0 F12000 X175.87 Y98.64
G1 F3480 X170.15 Y104.37 E645.00082
G0 F12000 X169.58 Y104.37
G1 F3480 X175.31 Y98.64 E645.26948
G0 F12000 X174.75 Y98.64
G1 F3480 X169.02 Y104.37 E645.53814
G0 F12000 X168.46 Y104.37
G1 F3480 X174.18 Y98.64 E645.80680
G0 F12000 X173.62 Y98.64
G1 F3480 X167.89 Y104.37 E646.07546
G0 F12000 X167.33 Y104.37
G1 F3480 X173.05 Y98.64 E646.34415
G0 F12000 X172.49 Y98.64
G1 F3480 X166.76 Y104.37 E646.61281
G0 F12000 X166.20 Y104.37
G1 F3480 X171.92 Y98.64 E646.88144
G0 F12000 X171.36 Y98.64
G1 F3480 X165.63 Y104.37 E647.15008
G0 F12000 X165.07 Y104.37
G1 F3480 X170.79 Y98.64 E647.41874
G0 F12000 X170.23 Y98.64
G1 F3480 X164.50 Y104.37 E647.68740
G0 F12000 X163.94 Y104.37
G1 F3480 X169.67 Y98.64 E647.95604
G0 F12000 X169.10 Y98.64
G1 F3480 X163.38 Y104.37 E648.22467
G0 F12000 X162.81 Y104.37
G1 F3480 X168.54 Y98.64 E648.49333
G0 F12000 X167.97 Y98.64
G1 F3480 X162.25 Y104.37 E648.76192
G0 F12000 X161.68 Y104.37
G1 F3480 X167.41 Y98.64 E649.03054
G0 F12000 X166.84 Y98.64
G1 F3480 X161.12 Y104.37 E649.29915
G0 F12000 X160.56 Y104.37
G1 F3480 X166.28 Y98.64 E649.56772
G0 F12000 X165.72 Y98.64
G1 F3480 X159.99 Y104.37 E649.83628
G0 F12000 X159.43 Y104.37
G1 F3480 X165.15 Y98.64 E650.10485
G0 F12000 X164.59 Y98.64
G1 F3480 X158.86 Y104.37 E650.37341
G0 F12000 X158.30 Y104.37
G1 F3480 X164.02 Y98.64 E650.64198
G0 F12000 X163.46 Y98.64
G1 F3480 X157.74 Y104.37 E650.91055
G0 F12000 X157.17 Y104.37
G1 F3480 X162.89 Y98.64 E651.17911
G0 F12000 X162.33 Y98.64
G1 F3480 X156.61 Y104.37 E651.44768
G0 F12000 X156.04 Y104.37
G1 F3480 X161.77 Y98.64 E651.71625
G0 F12000 X161.20 Y98.64
G1 F3480 X155.48 Y104.37 E651.98481
G0 F12000 X154.91 Y104.37
G1 F3480 X160.64 Y98.65 E652.25333
G0 F12000 X160.07 Y98.65
G1 F3480 X154.35 Y104.37 E652.52185
G0 F12000 X153.78 Y104.37
G1 F3480 X159.51 Y98.65 E652.79035
G0 F12000 X158.94 Y98.65
G1 F3480 X153.22 Y104.37 E653.05884
G0 F12000 X152.66 Y104.37
G1 F3480 X158.38 Y98.65 E653.32732
G0 F12000 X157.81 Y98.65
G1 F3480 X152.09 Y104.37 E653.59579
G0 F12000 X151.53 Y104.37
G1 F3480 X157.25 Y98.65 E653.86428
G0 F12000 X156.69 Y98.65
G1 F3480 X150.96 Y104.37 E654.13278
G0 F12000 X150.40 Y104.37
G1 F3480 X156.12 Y98.65 E654.40125
G0 F12000 X155.56 Y98.65
G1 F3480 X149.84 Y104.37 E654.66975
G0 F12000 X149.27 Y104.37
G1 F3480 X154.99 Y98.65 E654.93820
G0 F12000 X154.43 Y98.65
G1 F3480 X148.71 Y104.37 E655.20665
G0 F12000 X148.14 Y104.37
G1 F3480 X153.87 Y98.65 E655.47510
G0 F12000 X153.30 Y98.65
G1 F3480 X147.58 Y104.37 E655.74354
G0 F12000 X147.01 Y104.37
G1 F3480 X152.74 Y98.65 E656.01199
G0 F12000 X152.17 Y98.65
G1 F3480 X146.45 Y104.37 E656.28044
G0 F12000 X145.89 Y104.37
G1 F3480 X151.61 Y98.65 E656.54887
G0 F12000 X151.04 Y98.65
G1 F3480 X145.32 Y104.37 E656.81732
G0 F12000 X144.76 Y104.37
G1 F3480 X150.48 Y98.65 E657.08574
G0 F12000 X149.91 Y98.65
G1 F3480 X144.19 Y104.37 E657.35419
G0 F12000 X143.63 Y104.37
G1 F3480 X149.35 Y98.65 E657.62262
G0 F12000 X148.78 Y98.65
G1 F3480 X143.06 Y104.37 E657.89102
G0 F12000 X142.50 Y104.37
G1 F3480 X148.22 Y98.65 E658.15942
G0 F12000 X147.66 Y98.65
G1 F3480 X141.94 Y104.37 E658.42785
G0 F12000 X141.37 Y104.37
G1 F3480 X147.09 Y98.65 E658.69627
G0 F12000 X146.53 Y98.65
G1 F3480 X140.81 Y104.37 E658.96467
G0 F12000 X140.24 Y104.37
G1 F3480 X145.96 Y98.65 E659.23308
G0 F12000 X145.40 Y98.65
G1 F3480 X139.68 Y104.37 E659.50150
G0 F12000 X139.12 Y104.37
G1 F3480 X144.84 Y98.65 E659.76990
G0 F12000 X144.27 Y98.65
G1 F3480 X138.55 Y104.37 E660.03831
G0 F12000 X137.99 Y104.37
G1 F3480 X143.71 Y98.65 E660.30668
G0 F12000 X143.14 Y98.65
G1 F3480 X137.42 Y104.37 E660.57506
G0 F12000 X136.86 Y104.37
G1 F3480 X142.58 Y98.65 E660.84344
G0 F12000 X142.01 Y98.65
G1 F3480 X136.29 Y104.37 E661.11177
G0 F12000 X135.73 Y104.37
G1 F3480 X141.45 Y98.65 E661.38011
G0 F12000 X140.88 Y98.65
G1 F3480 X135.17 Y104.37 E661.64844
G0 F12000 X134.60 Y104.37
G1 F3480 X140.32 Y98.65 E661.91677
G0 F12000 X139.76 Y98.65
G1 F3480 X134.04 Y104.37 E662.18510
G0 F12000 X133.47 Y104.37
G1 F3480 X139.19 Y98.65 E662.45343
G0 F12000 X138.63 Y98.65
G1 F3480 X132.91 Y104.37 E662.72176
G0 F12000 X132.34 Y104.37
G1 F3480 X138.06 Y98.65 E662.99007
G0 F12000 X137.50 Y98.65
G1 F3480 X131.78 Y104.37 E663.25838
G0 F12000 X131.22 Y104.37
G1 F3480 X136.93 Y98.65 E663.52667
G0 F12000 X136.37 Y98.65
G1 F3480 X130.65 Y104.37 E663.79495
G0 F12000 X130.09 Y104.37
G1 F3480 X135.81 Y98.65 E664.06326
G0 F12000 X135.24 Y98.65
G1 F3480 X129.52 Y104.37 E664.33154
G0 F12000 X128.96 Y104.37
G1 F3480 X134.68 Y98.65 E664.59983
G0 F12000 X134.11 Y98.65
G1 F3480 X128.40 Y104.37 E664.86811
G0 F12000 X127.83 Y104.37
G1 F3480 X133.55 Y98.65 E665.13642
G0 F12000 X132.98 Y98.65
G1 F3480 X127.27 Y104.37 E665.40466
G0 F12000 X126.70 Y104.37
G1 F3480 X132.42 Y98.65 E665.67290
G0 F12000 X131.85 Y98.65
G1 F3480 X126.14 Y104.37 E665.94113
G0 F12000 X125.57 Y104.37
G1 F3480 X131.29 Y98.65 E666.20937
G0 F12000 X130.73 Y98.65
G1 F3480 X125.01 Y104.37 E666.47761
G0 F12000 X124.44 Y104.37
G1 F3480 X130.16 Y98.65 E666.74585
G0 F12000 X129.60 Y98.65
G1 F3480 X123.88 Y104.37 E667.01409
G0 F12000 X123.32 Y104.37
G1 F3480 X129.03 Y98.65 E667.28232
G0 F12000 X128.47 Y98.65
G1 F3480 X122.75 Y104.37 E667.55054
G0 F12000 X122.19 Y104.37
G1 F3480 X127.91 Y98.65 E667.81878
G0 F12000 X127.34 Y98.65
G1 F3480 X121.62 Y104.37 E668.08697
G0 F12000 X121.06 Y104.37
G1 F3480 X126.78 Y98.65 E668.35516
G0 F12000 X126.21 Y98.65
G1 F3480 X120.50 Y104.37 E668.62337
G0 F12000 X119.93 Y104.37
G1 F3480 X125.65 Y98.65 E668.89156
G0 F12000 X125.08 Y98.65
G1 F3480 X119.37 Y104.37 E669.15975
G0 F12000 X118.80 Y104.37
G1 F3480 X124.52 Y98.65 E669.42795
G0 F12000 X123.95 Y98.65
G1 F3480 X118.24 Y104.37 E669.69614
G0 F12000 X117.67 Y104.37
G1 F3480 X123.39 Y98.65 E669.96430
G0 F12000 X122.83 Y98.65
G1 F3480 X117.11 Y104.37 E670.23247
G0 F12000 X116.55 Y104.37
G1 F3480 X122.26 Y98.65 E670.50066
G0 F12000 X121.70 Y98.65
G1 F3480 X115.98 Y104.37 E670.76881
G0 F12000 X115.42 Y104.37
G1 F3480 X121.13 Y98.65 E671.03695
G0 F12000 X120.57 Y98.65
G1 F3480 X114.85 Y104.37 E671.30509
G0 F12000 X114.29 Y104.37
G1 F3480 X120.00 Y98.65 E671.57324
G0 F12000 X119.44 Y98.65
G1 F3480 X113.72 Y104.37 E671.84138
G0 F12000 X113.16 Y104.37
